!!!!SEGMENT: pl-cz--iii-273--001_gotschalk-filip--vesperae-in-d-dixit.krn
!!!cenid: 18xx:143
!!!COM: Gotschalk, Filip
!!!COM-rismID: pe30020320
!!!CDT: 1760-1809
!!!CNT:
!!!OPR: Vesperae in D
!!!OTL: Dixit
!!!OMV: 001
!!!PDT:
!!!AGN: Sacred; Vespers
!!!SMS-siglum: PL-CZ
!!!SMS-shelfmark: III-273
!!!SMS-shelfwork: 001-001 M
!!!NIFC-rismSourceID: 300000387
!!!NIFC-rismChildID: 300000387
!!!NIFC-islandoraID: pl-cz:37019
!!!URL-pdf-islandora: https://repozytorium.nifc.pl/islandora/object/pl-cz%3A37019/datastream/PDF/view
!!!URL-scan: https://polish.musicsources.pl/pl/lokalizacje/galeria/rekopisy/6884/1 @EN{Scan on Polish Music Sources Website} @PL{Skany w portalu Dziedzictwo Muzyki Polskiej w otwartym dostępie}
!!!IIIF:
!!!ONB-nifc:
!!!AIN: 1 alto 3 empty 1 organ 1 tenor 3 violn 1 vox
!!!key:
**kern	**fba	**dynam	**kern	**dynam	**kern	**dynam	**kern	**dynam	**kern	**text	**kern	**text	**kern	**text	**kern	**text	**kern	**kern
*part10	*	*part10	*part9	*part9	*part8	*part8	*part7	*part7	*part6	*part6	*part5	*part5	*part4	*part4	*part3	*part3	*part2	*part1
*	*	*	*group3	*	*group3	*	*group3	*	*group2	*	*group2	*	*group2	*	*group2	*	*group1	*group1
*staff10	*	*	*staff9	*	*staff8	*	*staff7	*	*staff6	*staff6	*staff5	*staff5	*staff4	*staff4	*staff3	*staff3	*staff2	*staff1
*Iorgan	*	*	*Ivioln	*	*Ivioln	*	*Ivioln	*	*Iempty	*	*Itenor	*	*Ialto	*	*Ivox	*	*Iempty	*Iempty
*I"Organo.	*	*	*I"Violino Secondo. *	*	*I"Violino Secondo.	*	*I"Violino Primo	*	*I"Basſo.	*	*I"Tenore.	*	*I"Alto.	*	*I"Canto.	*	*I"Clarino Secondo in D.	*I"Clarino Primo in D.
*I'Org	*	*	*I'V-no	*	*I'Vn II	*	*I'Vn I	*	*I'B	*	*I'T	*	*I'A	*	*I'C	*	*I'Clno II	*I'Clno I
*clefF4	*	*	*clefG2	*	*clefG2	*	*clefG2	*	*clefF4	*	*clefC4	*	*clefC3	*	*clefC1	*	*clefG2	*clefG2
*	*	*	*	*	*	*	*	*	*	*	*	*	*	*	*	*	*ITrd-1c-2	*ITrd-1c-2
*k[f#c#]	*	*	*k[f#c#]	*	*k[f#c#]	*	*k[f#c#]	*	*k[f#c#]	*	*k[f#c#]	*	*k[f#c#]	*	*k[f#c#]	*	*k[f#c#]	*k[f#c#]
*D:	*	*	*	*	*D:	*	*D:	*	*D:	*	*D:	*	*D:	*	*D:	*	*	*
*M2/2	*	*	*M2/2	*	*M2/2	*	*M2/2	*	*M2/2	*	*M2/2	*	*M2/2	*	*M2/2	*	*M2/2	*M2/2
*met(c|)	*	*	*met(c|)	*	*met(c|)	*	*met(c|)	*	*met(c|)	*	*met(c|)	*	*met(c|)	*	*met(c|)	*	*met(c|)	*met(c|)
=1	=1	=1	=1	=1	=1	=1	=1	=1	=1	=1	=1	=1	=1	=1	=1	=1	=1	=1
*4\right	*	*	*4\right	*	*4\right	*	*	*	*4\right	*	*	*	*4\right	*	*	*	*	*
!LO:TX:a:t=Tutti Moderato.	!	!	!LO:TX:a:t=P:problem=drugi odpis partii Violino Secondo	!	!	!	!LO:TX:a:t=P:problem=w tym głosie wszystkie caudy z prawej strony	!	!LO:TX:a:t=P:problem=w tym głosie wszystkie caudy z prawej strony,"D"przed kluczem	!	!LO:TX:a:t=P:problem=inny układ krzyżyków,"D"przed kluczem	!	!LO:TX:a:t=P:problem=w tym głosie wszystkie caudy z prawej strony,"D" przed kluczem	!	!LO:TX:a:t=P:problem=inny układ krzyżyków przy kluczu,"D" przed kluczem	!	!	!
!	!	!	!	!	!LO:TX:a:B:t=Moderato	!	!LO:TX:a:B:t=Moderato.	!	!	!	!LO:TX:a:B:t=Moderato	!	!	!	!LO:TX:a:B:t=Moderato	!	!LO:TX:a:B:t=Moderato	!LO:TX:a:B:t=Moderato
4D\	.	.	4ff#\ 4a\ 4d\	.	4ff#\ 4a\ 4d\	.	4ff#/ 4a/ 4d/	.	4D\	[D]i-	4A/	[D]i-	4f#\	[D]i-	4dd\	[D]i-	4r	4r
*	*	*	*8\right	*	*8\right	*	*8\right	*	*	*	*	*	*8\right	*	*	*	*	*
4D\	.	.	8aa\L	.	8aa\L	.	8aa\L	.	4D\	-xit	4A/	-xit	8a\L	-xit	4dd\	-xit	8d/L	8dd\L
.	.	.	8ff#\J	.	8ff#\J	.	8ff#\J	.	.	.	.	.	8f#\J	.	.	.	8d/J	8dd\J
*	*	*	*	*	*	*	*4\right	*	*8\right	*	*	*	*	*	*	*	*	*
8d\L	.	.	4.dd\	.	4.dd\	.	4.dd\	.	8d\L	Do-	8A/	Do-	8d\	Do-	8dd\	Do-	4f#/	4.dd\
8A\	.	.	.	.	.	.	.	.	8A\J	.	8A/	-mi-	8d\	-mi-	8dd\	-mi-	.	.
8F#\	.	.	.	.	.	.	.	.	8F#\	-mi-	4A/	-nus	4f#\	-nus	4dd\	-nus	8a/L	.
8D\J	.	.	8a/	.	8a/	.	8ff#\	.	8D/	-nus	.	.	.	.	.	.	8dd\J	8ff#\
=2	=2	=2	=2	=2	=2	=2	=2	=2	=2	=2	=2	=2	=2	=2	=2	=2	=2	=2
*	*	*	*	*	*	*	*Xtuplet	*	*	*	*	*	*	*	*	*	*	*
*	*	*	*	*	*	*	*12\right	*	*	*	*	*	*16\right	*	*	*	*	*
4A\	.	.	(<8g/L	.	(<8g/L	.	12ee\L	.	8A\	Do-	8A/	Do-	16e\LL	Do-	8ee\	Do-	4a/	4ee\
.	.	.	.	.	.	.	.	.	.	.	.	.	16f#\JJ	.	.	.	.	.
.	.	.	.	.	.	.	12ff#\	.	.	.	.	.	.	.	.	.	.	.
.	.	.	8a/)	.	8a/)	.	.	.	8A\	-mi-	8A/	-mi-	8e\	-mi-	8ee\	-mi-	.	.
.	.	.	.	.	.	.	12ee\J	.	.	.	.	.	.	.	.	.	.	.
4D\	.	.	(<8f#/	.	(<8f#/	.	8dd\L	.	4D/	-no	4A/	-no	4d\	-no	8dd\L	-no	4f#/	4dd\
.	.	.	8a/J)	.	8a/J)	.	8ff#\J	.	.	.	.	.	.	.	8ff#\J	.	.	.
4A\	.	.	(8g/L	.	8g/L	.	12ee\L	.	4A\	me-	4A/	me-	(>16e\LL	me-	4ee\	me-	4a/	4ee\
.	.	.	.	.	.	.	.	.	.	.	.	.	16f#\JJ	.	.	.	.	.
.	.	.	.	.	.	.	12ff#\	.	.	.	.	.	.	.	.	.	.	.
.	.	.	8a/	.	(<8a/	.	.	.	.	.	.	.	8e\)	.	.	.	.	.
.	.	.	.	.	.	.	12ee\J	.	.	.	.	.	.	.	.	.	.	.
4D\	.	.	8f#/	.	8f#/	.	4dd\	.	4D/	o	4A/	o	4d\	-o	4dd\	-o	4f#/	4dd\
.	.	.	8a/J)	.	8a/J)	.	.	.	.	.	.	.	.	.	.	.	.	.
=3	=3	=3	=3	=3	=3	=3	=3	=3	=3	=3	=3	=3	=3	=3	=3	=3	=3	=3
4d\	.	.	4a/ 4d/	.	4dd\ 4d\	.	4ff#/ 4a/ 4d/	.	8d\	ſe-	4A/	Se-	4a\	ſe-	4ff#\	se-	4r	4r
.	.	.	.	.	.	.	.	.	8d\	-de	.	.	.	.	.	.	.	.
4D/	.	.	8aa\L	.	8aa\L	.	8ddd\L	.	8d\	a	8A/	-de	8b\	-de	8dd\	-de	8dd\L	8ff#\L
.	.	.	8ff#\J	.	8ff#\J	.	8aa\J	.	8d\	dex-	8A/	a	8a\	a	8dd\	a	8dd\J	8ff#\J
!	!	!	!	!	!	!	!	!	!LO:LB:g=original	!	!	!	!	!	!LO:LB:g=original	!	!	!
*8\right	*	*	*	*	*	*	*	*	*	*	*	*	*	*	*	*	*	*
8d\L	.	.	4.dd\	.	4.dd\	.	4.ff#\	.	4d\	-tris	4A/	dex-	4.f#\	dex-	4.dd\	dex-	4.dd\	4.ff#\
8A\	.	.	.	.	.	.	.	.	.	.	.	.	.	.	.	.	.	.
8F#\	.	.	.	.	.	.	.	.	4D\	me-	4A/	-tris	.	.	.	.	.	.
8D\J	.	.	8ff#\	.	8ff#\	.	8aa\	.	.	.	.	.	8a\	-tris	8ff#\	-tris	8ff#\	8aa\
=4	=4	=4	=4	=4	=4	=4	=4	=4	=4	=4	=4	=4	=4	=4	=4	=4	=4	=4
!	!	!	!	!	!LO:LB:g=original	!	!LO:LB:g=original	!	!	!	!	!	!LO:LB:g=original	!	!	!	!	!
*	*	*	*	*	*	*	*	*	*	*	*	*	*12\right	*	*	*	*	*
!	!	!	!	!	!	!	!	!	!	!	!	!	!LO:TUP:a:problem=klamra łukowa	!	!	!	!	!
4A\	.	.	(8e/L	.	8ee\L	.	12gg\L	.	4A\	-is	4A/	me-	12g\L	me-	4ee\	me-	4ee\	4gg\
.	.	.	.	.	.	.	12aa\	.	.	.	.	.	12a\	.	.	.	.	.
.	.	.	8a/	.	8a\	.	.	.	.	.	.	.	.	.	.	.	.	.
.	.	.	.	.	.	.	12gg\J	.	.	.	.	.	12g\J	.	.	.	.	.
4D\	.	.	8f#/	.	8dd\	.	8ff#\L	.	4D/	a	4A/	-is	8f#\L	-is	4dd\	-is	4dd\	4ff#\
.	.	.	8a/J)	.	8a\J	.	8aa\J	.	.	.	.	.	8a\J	.	.	.	.	.
*	*	*	*	*	*	*	*	*	*	*	*	*ij	*	*	*	*	*	*
4A\	.	.	(<8e/L	.	8ee\L	.	12gg\L	.	4A\	dex-	4A/	me-	12g\L	me-	4ee\	me-	4ee\	4gg\
.	.	.	.	.	.	.	12aa\	.	.	.	.	.	12a\	.	.	.	.	.
.	.	.	8a/	.	8a\J	.	.	.	.	.	.	.	.	.	.	.	.	.
!	!	!	!	!	!	!	!	!	!	!	!	!	!LO:TUP:a:problem=klamra łukowa	!	!	!	!	!
.	.	.	.	.	.	.	12gg\J	.	.	.	.	.	12g\J	.	.	.	.	.
4D\	.	.	8f#/	.	4dd\	.	4ff#\	.	4D/	-tris	4A/	-is	4f#\	-is	4dd\	-is	4dd\	4ff#\
*	*	*	*	*	*	*	*	*	*	*	*	*Xij	*	*	*	*	*	*
.	.	.	8a/J)	.	.	.	.	.	.	.	.	.	.	.	.	.	.	.
=5	=5	=5	=5	=5	=5	=5	=5	=5	=5	=5	=5	=5	=5	=5	=5	=5	=5	=5
!LO:LB:g=original	!	!	!LO:LB:g=original	!	!	!	!	!	!	!	!LO:LB:g=original	!	!	!	!	!	!LO:LB:g=original	!LO:LB:g=original
!LO:TX:a:t=P:problem=znak repetycji na początku taktu	!	!	!	!	!	!	!	!	!	!	!	!	!	!	!	!	!	!
8D\L	.	.	4ff#\ 4a\	.	4ff#\ 4a\ 4d\	.	4aa\	.	4d\	do-	4f#\	do-	4a\	do-	4ff#\	do-	4.ff#\	4.aa\
8d\J	.	.	.	.	.	.	.	.	.	.	.	.	.	.	.	.	.	.
*	*	*	*16\right	*	*16\right	*	*16\right	*	*	*	*	*	*	*	*	*	*	*
8D\L	.	.	16ff#\LL	.	(>16ff#\LL	.	16aa\LL	.	4d\	-nec	4d\	-nec	(>16a\LL	-nec	(>16ff#\LL	-nec	.	.
.	.	.	16gg\	.	16gg\	.	16bb\	.	.	.	.	.	16b\	.	16gg\	.	.	.
8d\J	.	.	16ff#\	.	16ff#\	.	16aa\	.	.	.	.	.	16a\	.	16ff#\	.	8ee\	8gg\
.	.	.	16ee\JJ	.	16ee\JJ)	.	16gg\JJ	.	.	.	.	.	16g\JJ)	.	16ee\JJ)	.	.	.
!	!	!	!	!	!LO:TX:a:t=P:problem=mixed beam	!	!	!	!	!	!	!	!	!	!	!	!	!
8D\L	.	.	8dd\L	.	8dd\`>L	.	4ff#\	.	4d\	po-	4A/	pa-	4f#\	po-	4dd\	po-	4dd\	4ff#\
8d\	.	.	8a\J	.	(<8a/	.	.	.	.	.	.	.	.	.	.	.	.	.
8A\	.	.	8f#/L	.	8f#/	.	8r	.	4D/	-nam	4A/	-nam	4f#\	-nam	4dd\	-nam	4r	4r
*	*	*	*	*	*	*	*	*below	*	*	*	*	*	*	*	*	*	*
!	!	!	!	!LO:DY:t=p	!	!	!	!LO:DY:t=p.	!	!	!	!	!	!	!	!	!	!
8F#\J	.	.	8a/J	p	8a/J)	.	(>16dd\LL	p	.	.	.	.	.	.	.	.	.	.
.	.	.	.	.	.	.	16ee\JJ)	.	.	.	.	.	.	.	.	.	.	.
=6	=6	=6	=6	=6	=6	=6	=6	=6	=6	=6	=6	=6	=6	=6	=6	=6	=6	=6
!	!	!LO:DY:t=piano	!	!	!	!	!	!	!LO:TX:b:t=1.	!	!LO:TX:a:t=1	!	!	!	!LO:TX:a:t=1	!	!	!
4D\	.	p	(8dd\L	.	8dd\L	p	8ff#\'L	.	1r	.	1r	.	1r	.	1r	.	1r	1r
.	.	.	8ee\	.	8ee\J	.	8gg\'	.	.	.	.	.	.	.	.	.	.	.
4D\	.	.	8ff#\)	.	8ff#\	.	8aa\'	.	.	.	.	.	.	.	.	.	.	.
.	.	.	8gg\J	.	(4ff#\ 4a\	.	8bb\'J	.	.	.	.	.	.	.	.	.	.	.
4D\	.	.	8ee\	.	.	.	8ccc#\'L	.	.	.	.	.	.	.	.	.	.	.
.	.	.	4ff#\	.	4ff#\ 4a\	.	8ddd\'	.	.	.	.	.	.	.	.	.	.	.
4D\	.	.	.	.	.	.	8aa\'	.	.	.	.	.	.	.	.	.	.	.
.	.	.	8dd\	.	8dd\)	.	8ff#\'J	.	.	.	.	.	.	.	.	.	.	.
=7	=7	=7	=7	=7	=7	=7	=7	=7	=7	=7	=7	=7	=7	=7	=7	=7	=7	=7
!LO:TX:a:t=P:problem=mixed beam	!	!LO:DY:t=forte	!	!	!	!	!	!LO:DY:t=forte	!	!	!	!	!	!	!	!	!	!
8AA/L	.	f	4ee\	f	4ee\ 4a\	.	4gg\	f	4A\	i-	4c#\	i-	(>4g\	i-	4ee\	i-	4.ee\	4.gg\
8A\	.	.	.	.	.	f	.	.	.	.	.	.	.	.	.	.	.	.
8AA/	.	.	(16ee\LL	.	16ee\LL	.	16gg\LL	.	4A\	-ni-	4c#\	-ni-	16g\LL	-ni-	16ee\LL	-ni-	.	.
.	.	.	16ff#\	.	16ff#\	.	16aa\	.	.	.	.	.	16a\	.	16ff#\	.	.	.
8A\J	.	.	16ee\)	.	16ee\	.	16gg\	.	.	.	.	.	16g\	.	16ee\	.	8dd\	8ff#\
.	.	.	16dd\JJ	.	16dd\JJ	.	16ff#\JJ	.	.	.	.	.	16f#\JJ)	.	16dd\JJ	.	.	.
!	!	!	!	!	!LO:LB:g=original	!	!	!	!	!	!	!	!	!	!	!	!	!
!LO:TX:a:t=P:problem=mixed beam	!	!	!	!	!	!	!	!	!	!	!	!	!	!	!	!	!	!
8AA/L	.	.	4cc#\	.	8cc#\L	.	8ee\	.	4A\	-mi-	4A/	-mi-	4e\	-mi-	4cc#\	-mi-	4a/	4ee\
8A\	.	.	.	.	8a\J	.	4r	.	.	.	.	.	.	.	.	.	.	.
8E\	.	.	8r	.	8cc#\L	.	.	.	4AA/	-cos	4A/	-cos	4e\	-cos	4cc#\	-cos	4r	4r
8C#\J	.	.	16a\LL	p	16a\L	p	(>16cc#\LL	.	.	.	.	.	.	.	.	.	.	.
!	!	!	!	!	!	!	!	!LO:DY:t=piano.	!	!	!	!	!	!	!	!	!	!
.	.	.	16b\JJ	.	16b\JJ	.	16dd\JJ)	p	.	.	.	.	.	.	.	.	.	.
=8	=8	=8	=8	=8	=8	=8	=8	=8	=8	=8	=8	=8	=8	=8	=8	=8	=8	=8
!	!	!	!	!	!	!	!LO:LB:g=original	!	!	!	!	!	!	!	!	!	!	!
!	!	!LO:DY:t=piano.	!	!	!	!	!	!	!	!	!LO:TX:a:t=1	!	!LO:TX:b:t=1.	!	!LO:TX:a:t=1	!	!	!
4AA/	.	p	8cc#\L	.	(>8cc#\L	.	8ee\'L	.	1r	.	1r	.	1r	.	1r	.	1r	1r
.	.	.	8dd\	.	8dd\)	.	8ff#\'	.	.	.	.	.	.	.	.	.	.	.
4AA/	.	.	8cc#\	.	(>8cc#\	.	8ee\'	.	.	.	.	.	.	.	.	.	.	.
.	.	.	8dd\J	.	8dd\J)	.	8ff#\'J	.	.	.	.	.	.	.	.	.	.	.
4C#/	.	.	8ee\L	.	8ee\L	.	8gg\'L	.	.	.	.	.	.	.	.	.	.	.
.	.	.	8ff#\	.	8ff#\	.	8aa\'	.	.	.	.	.	.	.	.	.	.	.
4C#/	.	.	8gg\	.	8gg\	.	8bb\'	.	.	.	.	.	.	.	.	.	.	.
!LO:TX:a:t=P:problem=znak repetycji na końcu taktu	!	!	!	!	!	!	!	!	!	!	!	!	!	!	!	!	!	!
.	.	.	8ee\J	.	8ee\J	.	8gg\'J	.	.	.	.	.	.	.	.	.	.	.
=9	=9	=9	=9	=9	=9	=9	=9	=9	=9	=9	=9	=9	=9	=9	=9	=9	=9	=9
!	!	!	!	!	!	!	!	!	!	!	!	!	!	!	!LO:LB:g=original	!	!	!
!LO:TX:a:t=P:problem=takty 9-12 zapisane repetycją	!	!	!	!	!	!	!	!LO:DY:t=for.	!	!	!	!	!	!	!	!	!	!
8D\L	.	.	4ff#\ 4a\	f	4ff#\ 4a\	f	4aa\	f	4d\	do-	4f#\	do-	(>4a\	do-	4ff#\	do-	4.ff#\	4.aa\
8d\J	.	.	.	.	.	.	.	.	.	.	.	.	.	.	.	.	.	.
8D\L	.	.	16ff#\LL	.	(>16ff#\LL	.	16aa\LL	.	4d\	-nec	4d\	-nec	16a\LL	-nec	16ff#\LL	-nec	.	.
.	.	.	16gg\	.	16gg\	.	16bb\	.	.	.	.	.	16b\	.	16gg\	.	.	.
8d\J	.	.	16ff#\	.	16ff#\	.	16aa\	.	.	.	.	.	16a\	.	16ff#\	.	8ee\	8gg\
.	.	.	16ee\JJ	.	16ee\JJ)	.	16gg\JJ	.	.	.	.	.	16g\JJ)	.	16ee\JJ	.	.	.
!	!	!	!LO:LB:g=original	!	!	!	!	!	!LO:LB:g=original	!	!	!	!LO:TUP:a:problem=klamra łukowa	!	!	!	!	!
!	!	!	!	!	!LO:TX:a:t=P:problem=mixed beam	!	!	!	!	!	!	!	!	!	!	!	!	!
8D\L	.	.	8dd\L	.	(>8dd\L	.	4ff#\	.	4d\	po-	4A\	pa-	4f#\	po-	4dd\	po-	4dd\	4ff#\
8d\	.	.	8a\J	.	8a/J)	.	.	.	.	.	.	.	.	.	.	.	.	.
8A\	.	.	8f#/L	.	(<8f#/L	.	8r	.	4D\	-nam	4A\	-nam	4f#\	-nam.	4dd\	-nam	4r	4r
!	!	!	!	!	!	!	!	!LO:DY:t=p.	!	!	!	!	!	!	!	!	!	!
8F#\J	.	.	8a/J	p	8a/J)	.	16dd\LL	p	.	.	.	.	.	.	.	.	.	.
.	.	.	.	.	.	.	16ee\JJ	.	.	.	.	.	.	.	.	.	.	.
=10	=10	=10	=10	=10	=10	=10	=10	=10	=10	=10	=10	=10	=10	=10	=10	=10	=10	=10
!	!	!LO:DY:t=piano	!	!	!	!	!	!	!LO:TX:a:t=1.	!	!LO:TX:a:t=1	!	!	!	!	!	!	!
4D\	.	p	8dd\L	.	8dd\L	.	8ff#\'L	.	1r	.	1r	.	1r	.	1r	.	1r	1r
.	.	.	(<8ee\	.	8ee\J	.	8gg\'	.	.	.	.	.	.	.	.	.	.	.
4D\	.	.	8ff#\)	.	(>8ff#\ 8a\	.	8aa\'	.	.	.	.	.	.	.	.	.	.	.
.	.	.	(>8gg\J	.	4ff#\ 4a\	.	8bb\'J	.	.	.	.	.	.	.	.	.	.	.
4D\	.	.	8ee\)	.	.	.	8ccc#\'L	.	.	.	.	.	.	.	.	.	.	.
.	.	.	4ff#\	.	4ff#\ 4a\	.	8ddd\'	.	.	.	.	.	.	.	.	.	.	.
4D\	.	.	.	.	.	.	8aa\'	.	.	.	.	.	.	.	.	.	.	.
.	.	.	8dd\	.	8dd\)	.	8ff#\'J	.	.	.	.	.	.	.	.	.	.	.
=11	=11	=11	=11	=11	=11	=11	=11	=11	=11	=11	=11	=11	=11	=11	=11	=11	=11	=11
!	!	!	!	!	!LO:LB:g=original	!	!	!	!	!	!	!	!	!	!	!	!	!
!LO:TX:a:t=P:problem=mixed beam	!	!LO:DY:t=forte	!	!	!	!	!	!LO:DY:t=forte	!	!	!	!	!	!	!	!	!	!
8AA/L	.	f	4ee\	f	4ee\	.	4gg\	f	4A\	i-	4c#\	i-	(>4g\	i-	4ee\	i-	4.ee\	4.gg\
8A\	.	.	.	.	.	.	.	.	.	.	.	.	.	.	.	.	.	.
8AA/	.	.	16ee\LL	.	(>16ee\LL	.	16gg\LL	.	4A\	-ni-	4c#\	-ni-	16g\LL	-ni-	16ee\LL	-ni-	.	.
.	.	.	16ff#\	.	16ff#\	.	16aa\	.	.	.	.	.	16a\	.	16ff#\	.	.	.
8A\J	.	.	16ee\	.	16ee\	.	16gg\	.	.	.	.	.	16g\	.	16ee\	.	8dd\	8ff#\
.	.	.	16dd\JJ	.	16dd\JJ)	.	16ff#\JJ	.	.	.	.	.	16f#\JJ)	.	16dd\JJ	.	.	.
!LO:TX:a:t=P:problem=mixed beam	!	!	!LO:TX:a:t=P:problem=brak nuty 4cc#	!	!	!	!	!	!	!	!	!	!	!	!	!	!	!
8AA/L	.	.	4ryy	.	(>8cc#\L	.	4ee\	.	4A\	-mi-	4A/	-mi-	4e\	-mi-	4cc#\	-mi-	4a/	4ee\
8A\	.	.	.	.	8a\J)	.	.	.	.	.	.	.	.	.	.	.	.	.
8E\	.	.	8r	.	8c#/L	.	8r	.	4AA/	-cos	4A/	-cos	4e\	-cos	4cc#\	-cos	4r	4r
!	!	!	!	!	!	!	!	!LO:DY:t=piano	!	!	!	!	!	!	!	!	!	!
8C#\J	.	.	16a\LL	.	16a/L	p	(>16cc#\LL	p	.	.	.	.	.	.	.	.	.	.
.	.	.	16b\JJ	p	16b\JJ	.	16dd\JJ)	.	.	.	.	.	.	.	.	.	.	.
=12	=12	=12	=12	=12	=12	=12	=12	=12	=12	=12	=12	=12	=12	=12	=12	=12	=12	=12
!	!	!	!	!	!	!	!LO:LB:g=original	!	!	!	!	!	!	!	!	!	!	!
!	!	!LO:DY:t=piano.	!	!	!	!	!	!	!	!	!LO:TX:a:t=1	!	!LO:TX:b:t=1.	!	!LO:TX:a:t=1	!	!	!
4AA/	.	p	(>8cc#\L	.	(>8cc#\L	.	8ee\L	.	1r	.	1r	.	1r	.	1r	.	1r	1r
.	.	.	8dd\	.	8dd\	.	8ff#\	.	.	.	.	.	.	.	.	.	.	.
4AA/	.	.	8cc#\)	.	8cc#\	.	8ee\	.	.	.	.	.	.	.	.	.	.	.
.	.	.	8dd\J	.	8dd\J)	.	8ff#\J	.	.	.	.	.	.	.	.	.	.	.
4C#/	.	.	8ee\L	.	8ee\L	.	8gg\L	.	.	.	.	.	.	.	.	.	.	.
.	.	.	8ff#\	.	8ff#\	.	8aa\	.	.	.	.	.	.	.	.	.	.	.
4C#/	.	.	8gg\	.	8gg\	.	8bb\	.	.	.	.	.	.	.	.	.	.	.
.	.	.	8ee\J	.	8ee\J	.	8gg\J	.	.	.	.	.	.	.	.	.	.	.
=13	=13	=13	=13	=13	=13	=13	=13	=13	=13	=13	=13	=13	=13	=13	=13	=13	=13	=13
!	!	!	!	!	!	!	!	!	!	!	!LO:LB:g=original	!	!	!	!	!	!	!
*tremolo	*	*	*tremolo	*	*tremolo	*	*	*	*2\right	*	*2\right	*	*2\right	*	*2\right	*	*	*
*2\right	*	*	*	*	*	*	*	*	*	*	*	*	*	*	*	*	*	*
!LO:TX:a:i:t=Tutti	!	!	!	!	!	!	!	!LO:DY:t=forte	!	!	!	!	!	!	!	!	!	!
8D\L	.	.	16a/LL 16d/	.	16a/LL 16d/	f	4ff#/ 4a/ 4d/	f	2d\	tu-	2d\	tu-	2a\	tu-	2ff#\	tu-	4dd\	4ff#\
.	.	.	16a/ 16d/	.	16a/ 16d/	.	.	.	.	.	.	.	.	.	.	.	.	.
8D\	.	.	16a/ 16d/	.	16a/ 16d/	.	.	.	.	.	.	.	.	.	.	.	.	.
.	.	.	16a/ 16d/	.	16a/ 16d/	.	.	.	.	.	.	.	.	.	.	.	.	.
8D\	.	.	16a/ 16d/	.	16a/ 16d/	.	(>16ff#\LL	.	.	.	.	.	.	.	.	.	8dd\L	8ff#\L
.	.	.	16a/ 16d/	.	16a/ 16d/	.	16dd\	.	.	.	.	.	.	.	.	.	.	.
8D\J	.	.	16a/ 16d/	.	16a/ 16d/	.	16a\	.	.	.	.	.	.	.	.	.	8dd\J	8ff#\J
.	.	.	16a/JJ 16d/	.	16a/JJ 16d/	.	16dd\JJ)	.	.	.	.	.	.	.	.	.	.	.
8D\L	.	.	16a/LL 16f#/	f	16a/LL 16f#/	.	8ff#\L	.	4d\	-os	4d\	-os	4a\	-os	4ff#\	-os	4dd\	4ff#\
.	.	.	16a/ 16f#/	.	16a/ 16f#/	.	.	.	.	.	.	.	.	.	.	.	.	.
8D\	.	.	16a/ 16f#/	.	16a/ 16f#/	.	8dd\	.	.	.	.	.	.	.	.	.	.	.
.	.	.	16a/ 16f#/	.	16a/ 16f#/	.	.	.	.	.	.	.	.	.	.	.	.	.
8D\	.	.	16a/ 16f#/	.	16a/ 16f#/	.	8ff#\	.	4d\	ſca-	4d\	sca-	4a\	sca-	4ff#\	sca-	4r	4r
.	.	.	16a/ 16f#/	.	16a/ 16f#/	.	.	.	.	.	.	.	.	.	.	.	.	.
8D\J	.	.	16a/ 16f#/	.	16a/ 16f#/	.	8dd\J	.	.	.	.	.	.	.	.	.	.	.
.	.	.	16a/JJ 16f#/	.	16a/JJ 16f#/	.	.	.	.	.	.	.	.	.	.	.	.	.
=14	=14	=14	=14	=14	=14	=14	=14	=14	=14	=14	=14	=14	=14	=14	=14	=14	=14	=14
!	!	!	!LO:LB:g=original	!	!	!	!	!	!	!	!	!	!	!	!	!	!LO:LB:g=original	!LO:LB:g=original
8D\L	#4_ 2_	.	16b/LL 16e/	.	16b/LL 16e/	.	4gg#X\	.	4d\	-bel-	4e\	-bel-	4b\	-bel-	4gg#X\	-bel-	4ee\	4ee\
.	.	.	16b/ 16e/	.	16b/ 16e/	.	.	.	.	.	.	.	.	.	.	.	.	.
8D\	.	.	16b/ 16e/	.	16b/ 16e/	.	.	.	.	.	.	.	.	.	.	.	.	.
.	.	.	16b/ 16e/	.	16b/ 16e/	.	.	.	.	.	.	.	.	.	.	.	.	.
8D\	.	.	16b/ 16e/	.	16b/ 16e/	.	16gg#\LL	.	4d\	-lum	4e\	-lum	4b\	-lum	4gg#\	-lum	8ee\L	8ee\L
.	.	.	16b/ 16e/	.	16b/ 16e/	.	16ee\	.	.	.	.	.	.	.	.	.	.	.
8D\J	.	.	16b/ 16e/	.	16b/ 16e/	.	16b\	.	.	.	.	.	.	.	.	.	8ee\J	8ee\J
.	.	.	16b/JJ 16e/	.	16b/JJ 16e/	.	16ee\JJ	.	.	.	.	.	.	.	.	.	.	.
!	!	!	!	!	!	!	!	!	!	!	!	!	!	!	!LO:LB:g=original	!	!	!
8D\L	.	.	16b/LL 16e/	.	16b/LL 16e/	.	8gg#\L	.	4d\	pe-	4e\	pe-	4b\	pe-	4gg#X\	pe-	4ee\	4ee\
.	.	.	16b/ 16e/	.	16b/ 16e/	.	.	.	.	.	.	.	.	.	.	.	.	.
8D\	.	.	16b/ 16e/	.	16b/ 16e/	.	8ee\	.	.	.	.	.	.	.	.	.	.	.
.	.	.	16b/ 16e/	.	16b/ 16e/	.	.	.	.	.	.	.	.	.	.	.	.	.
8D\	.	.	16b/ 16e/	.	16b/ 16e/	.	8gg#\	.	8d\	-dum	8e\	-dum	8g#X\	-dum	8ee\	-dum	4r	4r
.	.	.	16b/ 16e/	.	16b/ 16e/	.	.	.	.	.	.	.	.	.	.	.	.	.
8D\J	.	.	16b/ 16e/	.	16b/ 16e/	.	8ee\J	.	8d\	tu-	8e\	tu-	8b\	tu-	8gg#\	tu-	.	.
.	X X	.	16b/JJ 16e/	.	16b/JJ 16e/	.	.	.	.	.	.	.	.	.	.	.	.	.
=15	=15	=15	=15	=15	=15	=15	=15	=15	=15	=15	=15	=15	=15	=15	=15	=15	=15	=15
!LO:LB:g=original	!	!	!	!	!LO:LB:g=original	!	!	!	!	!	!	!	!	!	!	!	!	!
8C#/L	6	.	8cc#/ 8e/	.	8cc#\ 8e\	.	16aa\LL	.	4c#\	-o-	4A/	-o-	4cc#\	-o-	4aa\	-o-	4a/	4ee\
.	.	.	.	.	.	.	16aa\	.	.	.	.	.	.	.	.	.	.	.
8C#/	.	.	4cc#/ 4e/	.	4cc#\ 4e\	.	16ee\	.	.	.	.	.	.	.	.	.	.	.
.	.	.	.	.	.	.	16ee\JJ	.	.	.	.	.	.	.	.	.	.	.
8C#/	.	.	.	.	.	.	16aa\LL	.	4c#\	-rum,	4A/	-rum	4cc#\	-rum	4ee\	-rum	4r	4r
.	.	.	.	.	.	.	16aa\	.	.	.	.	.	.	.	.	.	.	.
8C#/J	.	.	8cc#/ 8e/	.	8cc#\ 8e\	.	16ee\	.	.	.	.	.	.	.	.	.	.	.
.	.	.	.	.	.	.	16ee\JJ	.	.	.	.	.	.	.	.	.	.	.
8G#X\L	6	.	8dd/ 8e/	.	8dd\ 8e\	.	16bb\LL	.	2r	.	2r	.	2r	.	2r	.	2r	2r
.	.	.	.	.	.	.	16bb\	.	.	.	.	.	.	.	.	.	.	.
8G#\	.	.	4dd/ 4e/	.	4dd\ 4e\	.	16ee\	.	.	.	.	.	.	.	.	.	.	.
.	.	.	.	.	.	.	16ee\JJ	.	.	.	.	.	.	.	.	.	.	.
*	*	*	*	*	*	*	*rep	*	*	*	*	*	*	*	*	*	*	*
8G#\	.	.	.	.	.	.	16bb\LL	.	.	.	.	.	.	.	.	.	.	.
.	.	.	.	.	.	.	16bb\	.	.	.	.	.	.	.	.	.	.	.
8G#\J	.	.	8dd/ 8e/	.	8dd\ 8e\	.	16ee\	.	.	.	.	.	.	.	.	.	.	.
.	.	.	.	.	.	.	16ee\JJ	.	.	.	.	.	.	.	.	.	.	.
*	*	*	*	*	*	*	*Xrep	*	*	*	*	*	*	*	*	*	*	*
=16	=16	=16	=16	=16	=16	=16	=16	=16	=16	=16	=16	=16	=16	=16	=16	=16	=16	=16
!	!	!	!	!	!	!	!LO:LB:g=original	!	!LO:LB:g=original	!	!	!	!LO:LB:g=original	!	!	!	!	!
!LO:TX:a:t=P:problem=mixed beam	!	!LO:DY:t=piano	!	!	!	!	!LO:DY:t=p.	!	!LO:TX:a:i:t=Solo.	!	!LO:TX:a:t=4	!	!LO:TX:a:Bi:t=Solo.	!	!LO:TX:a:t=4	!	!LO:TX:a:t=4	!LO:TX:a:t=4
8A\L	.	p	4ee\	p	(>4ee\	p	4ccc#\	p	(>4A\	Ju-	00r	.	(>4cc#\	Ju-	00r	.	00r	00r
8AA/	.	.	.	.	.	.	.	.	.	.	.	.	.	.	.	.	.	.
8AA/	.	.	4cc#\	.	4cc#\)	.	4aa\	.	4c#\)	.	.	.	4a\)	.	.	.	.	.
8AA/J	.	.	.	.	.	.	.	.	.	.	.	.	.	.	.	.	.	.
8AA/L	.	.	4.cc#\	.	4.cc#\	.	4.ee\	.	4c#\	-ra-	.	.	4.e\	-ra-	.	.	.	.
8AA/	.	.	.	.	.	.	.	.	.	.	.	.	.	.	.	.	.	.
8AA/	.	.	.	.	.	.	.	.	8A\L	-vit	.	.	.	.	.	.	.	.
8AA/J	.	.	16a\LL	.	16a\LL	.	16cc#\LL	.	8B\J	.	.	.	16c#\LL	-vit	.	.	.	.
.	.	.	16b\JJ	.	16b\JJ	.	16dd\JJ	.	.	.	.	.	16d\JJ	.	.	.	.	.
*Xtremolo	*	*	*	*	*	*	*	*	*	*	*	*	*	*	*	*	*	*
=17	=17	=17	=17	=17	=17	=17	=17	=17	=17	=17	=17	=17	=17	=17	=17	=17	=17	=17
4AA/	.	.	8cc#\`L	.	8cc#\`L	.	8ee\'L	.	4c#\	Do-	.	.	4e\	Do-	.	.	.	.
.	.	.	8cc#\`	.	(>8cc#\	.	8ee\'	.	.	.	.	.	.	.	.	.	.	.
4A\	.	.	(>8dd\	.	8dd\	.	(>8ff#\	.	8d\L	-mi-	.	.	(>8f#\L	-mi-	.	.	.	.
.	.	.	8cc#\J)	.	8cc#\J)	.	8ee\J)	.	8c#\J	.	.	.	8e\J)	.	.	.	.	.
!LO:TX:a:t=P:problem=mixed beam	!	!	!	!	!	!	!	!	!	!	!	!	!	!	!	!	!	!
*	*	*	*2\right	*	*2\right	*	*2\right	*	*	*	*	*	*	*	*	*	*	*
8AA/L	.	.	2cc#/ 2e/	.	8cc#\L 8e\	.	2ee\	.	2c#\	-nus	.	.	2e\	-nus	.	.	.	.
8A\	.	.	.	.	8cc#\ 8e\	.	.	.	.	.	.	.	.	.	.	.	.	.
8c#\	.	.	.	.	8cc#\ 8e\	.	.	.	.	.	.	.	.	.	.	.	.	.
8A\J	.	.	.	.	8cc#\J 8e\	.	.	.	.	.	.	.	.	.	.	.	.	.
*	*	*	*	*	*Xtremolo	*	*	*	*	*	*	*	*	*	*	*	*	*
=18	=18	=18	=18	=18	=18	=18	=18	=18	=18	=18	=18	=18	=18	=18	=18	=18	=18	=18
8e\L	.	.	(<8g#X/L	.	(<8g#X/L	.	4ddd\	.	4B\	et	.	.	4dd\	et	.	.	.	.
8E\	.	.	8b\J)	.	8b\)	.	.	.	.	.	.	.	.	.	.	.	.	.
8E\	.	.	(<8g#/L	.	(<8g#/	.	8bb\L	.	8G#X\L	non	.	.	8b\L	non	.	.	.	.
8E\J	.	.	8b\J)	.	8b\J)	.	8gg#X\J	.	8B\J	.	.	.	8g#X\J	.	.	.	.	.
!	!	!	!	!	!LO:LB:g=original	!	!	!	!	!	!	!	!	!	!	!	!	!
8E\L	.	.	8b/ 8g#/	.	(<8g#/L	.	4.ee\	.	8G#\	poe-	.	.	8e\	poe-	.	.	.	.
8B\	.	.	4b/ 4g#/	.	8b\J)	.	.	.	8G#\	-ni-	.	.	8e\	-ni-	.	.	.	.
8G#X\	.	.	.	.	8g#/L	.	.	.	8E\	-te-	.	.	8g#\	-te-	.	.	.	.
*	*	*	*	*	*	*	*	*	*16\right	*	*	*	*	*	*	*	*	*
8E\J	.	.	16g#/LL	.	16g#/L	.	16b\LL	.	16G#\LL	-bit	.	.	(>16b\LL	-bit	.	.	.	.
.	.	.	16a/JJ	.	16a/JJ	.	16cc#\JJ	.	16A\JJ	.	.	.	16cc#\JJ)	.	.	.	.	.
=19	=19	=19	=19	=19	=19	=19	=19	=19	=19	=19	=19	=19	=19	=19	=19	=19	=19	=19
!	!	!	!LO:LB:g=original	!	!	!	!	!	!	!	!	!	!	!	!	!	!	!
4E\	.	.	8b\`L	.	8b\`L	.	8dd\L	.	(>4B\	e-	.	.	(>4dd\	e-	.	.	.	.
.	.	.	8b\`	.	(>8b\	.	8dd\	.	.	.	.	.	.	.	.	.	.	.
4E\	.	.	(>8cc#\	.	8cc#\	.	8ee\	.	8c#\L	.	.	.	8ee\L	.	.	.	.	.
.	.	.	8b\J)	.	8b\J)	.	8dd\J	.	8B\J)	.	.	.	8dd\J)	.	.	.	.	.
*	*	*	*	*	*tremolo	*	*	*	*	*	*	*	*	*	*	*	*	*
8G#X\L	.	.	8b/L 8e/	.	8b/L 8e/	.	2dd\	.	2B\	-um	.	.	2dd\	-um	.	.	.	.
8E\	.	.	8b/ 8e/	.	8b/ 8e/	.	.	.	.	.	.	.	.	.	.	.	.	.
8G#\	.	.	8b/ 8e/	.	8b/ 8e/	.	.	.	.	.	.	.	.	.	.	.	.	.
8E\J	.	.	8b/J 8e/	.	8b/J 8e/	.	.	.	.	.	.	.	.	.	.	.	.	.
=20	=20	=20	=20	=20	=20	=20	=20	=20	=20	=20	=20	=20	=20	=20	=20	=20	=20	=20
!	!	!	!	!	!	!	!	!	!LO:LB:g=original	!	!	!	!	!	!	!	!	!
!LO:TX:a:i:t=Tutti	!	!	!	!	!	!	!LO:TX:a:t=Tutti	!	!	!	!	!	!	!	!	!	!	!
8A\L	.	.	16e/LL	f	16e/LL	f	16cc#\LL	.	4A\	tu	4A/	tu	4e\	tu	16cc#\LL	tu-	8a/L	4ee\
.	.	.	16e/	.	16e/	.	16dd\	.	.	.	.	.	.	.	16dd\	.	.	.
8E\	.	.	16e/	.	16e/	.	16cc#\	.	.	.	.	.	.	.	16cc#\	.	8a/J	.
.	.	.	16e/	.	16e/	.	16b\JJ	.	.	.	.	.	.	.	16b\JJ	.	.	.
8A\	.	.	16e/	.	16e/	.	8cc#\L	.	8A\	es	8A/	es	8e\	es	8a\	-os	4a/	8ee\L
.	.	.	16e/	.	16e/	.	.	.	.	.	.	.	.	.	.	.	.	.
8E\J	.	.	16e/	.	16e/	.	8ee\J 8a\	.	8A\	ſa-	8A/	sa-	8e\	ſa-	8cc#\	sa-	.	8ee\J
.	.	.	16e/JJ	.	16e/JJ	.	.	.	.	.	.	.	.	.	.	.	.	.
!	!	!	!	!	!	!	!	!	!	!	!	!	!LO:LB:g=original	!	!	!	!	!
8B\L	.	.	16e/LL	f	16e/LL	.	(>16dd\LL	.	4B\	-cer-	4B\	-cer-	4e\	-cer-	16dd\LL	-cer-	4ee\	4ee\
.	.	.	16e/	.	16e/	.	16ee\	.	.	.	.	.	.	.	16ee\	.	.	.
8E\	.	.	16e/	.	16e/	.	16dd\	.	.	.	.	.	.	.	16dd\	.	.	.
.	.	.	16e/	.	16e/	.	16cc#\JJ)	.	.	.	.	.	.	.	16cc#\JJ	.	.	.
8G#X\	.	.	16e/	.	16e/	.	4b\	.	4E\	-dos	4B\	-dos	4e\	-dos	4b\	-dos	4r	4r
.	.	.	16e/	.	16e/	.	.	.	.	.	.	.	.	.	.	.	.	.
8E\J	.	.	16e/	.	16e/	.	.	.	.	.	.	.	.	.	.	.	.	.
.	.	.	16e/JJ	.	16e/JJ	.	.	.	.	.	.	.	.	.	.	.	.	.
=21	=21	=21	=21	=21	=21	=21	=21	=21	=21	=21	=21	=21	=21	=21	=21	=21	=21	=21
!LO:LB:g=original	!	!	!	!	!	!	!LO:LB:g=original	!	!	!	!	!	!	!	!	!	!	!
8A\L	.	.	16e/LL	.	16e/LL	.	(>16cc#\LL	.	4A\	in	4A/	in	4e\	in	4cc#\	in	8a/L	4ee\
.	.	.	16e/	.	16e/	.	16dd\	.	.	.	.	.	.	.	.	.	.	.
8E\	.	.	16e/	.	16e/	.	16ee\	.	.	.	.	.	.	.	.	.	8a/J	.
.	.	.	16e/	.	16e/	.	16ff#\JJ)	.	.	.	.	.	.	.	.	.	.	.
8c#\	.	.	16e/	.	16e/	.	(>16gg#X\LL	.	4c#\	ae-	4A/	ae-	4e\	ae-	4ee\	ae-	4a/	8ee\L
.	.	.	16e/	.	16e/	.	16aa\	.	.	.	.	.	.	.	.	.	.	.
8E\J	.	.	16e/	.	16e/	.	16ee\	.	.	.	.	.	.	.	.	.	.	8ee\J
.	.	.	16e/JJ	.	16e/JJ	.	16cc#\JJ)	.	.	.	.	.	.	.	.	.	.	.
!	!	!	!	!	!	!	!	!	!	!	!LO:LB:g=original	!	!	!	!	!	!	!
8B\L	6\	.	16e/LL	.	16e/LL	.	(>16dd\LL	.	4B\	-ter-	4B\	-ter-	4e\	-ter-	16dd\LL	-ter-	4ee\	4ee\
.	.	.	16e/	.	16e/	.	16ee\	.	.	.	.	.	.	.	16ee\	.	.	.
8E\	.	.	16e/	.	16e/	.	16dd\	.	.	.	.	.	.	.	16dd\	.	.	.
.	.	.	16e/	.	16e/	.	16cc#\JJ)	.	.	.	.	.	.	.	16cc#\JJ	.	.	.
8G#X\	.	.	16e/	.	16e/	.	4b\	.	8E\	-num	8B\	-num	8e\	-num	8b\	-num	4r	4r
.	.	.	16e/	.	16e/	.	.	.	.	.	.	.	.	.	.	.	.	.
8E\J	.	.	16e/	.	16e/	.	.	.	8E\	se-	8B\	ſe-	8e\	se-	8b\	se-	.	.
.	.	.	16e/JJ	.	16e/JJ	.	.	.	.	.	.	.	.	.	.	.	.	.
=22	=22	=22	=22	=22	=22	=22	=22	=22	=22	=22	=22	=22	=22	=22	=22	=22	=22	=22
!	!	!	!	!	!	!	!	!	!	!	!	!	!	!	!LO:LB:g=original	!	!	!
!LO:TX:a:t=P:problem=mixed beam	!	!LO:DY:t=piano	!LO:TX:a:t=P:problem=mixed beam	!	!	!	!	!	!	!	!	!	!	!	!	!	!LO:TX:a:t=4	!LO:TX:a:t=4
8A\L	.	p	(>8e/L	.	8cc#\L 8e\	p	(>8cc#\L	.	4A\	-cun-	4e\	-cun-	4a\	-cun-	4cc#\	-cun-	00r	00r
!	!	!	!	!	!	!	!	!LO:DY:t=p.	!	!	!	!	!	!	!	!	!	!
8AA/	.	.	8cc#\	p	8cc#\	.	8ee\	p	.	.	.	.	.	.	.	.	.	.
8AA/	.	.	8ee\	.	8ee\	.	8ccc#\	.	4A\	-dum	4e\	-dum	4a\	-dum	4cc#\	-dum	.	.
8AA/J	.	.	8cc#\J)	.	8cc#\J	.	8aa\J)	.	.	.	.	.	.	.	.	.	.	.
!LO:TX:a:t=P:problem=mixed beam	!	!	!	!	!	!	!	!	!	!	!	!	!	!	!	!	!	!
8AA/L	.	.	4.cc#\	.	4.cc#\	.	4.ee\	.	8A\	or-	8e\	or-	8cc#\	or-	8ee\	or-	.	.
8A\	.	.	.	.	.	.	.	.	8A\	-di-	8e\	-di-	8cc#\	-di-	8ee\	-di-	.	.
8AA/	.	.	.	.	.	.	.	.	8A\	-nem	8e\	-nem	8cc#\	-nem	8ee\	-nem	.	.
8A\J	.	.	(>16a\LL	.	16a\LL	.	16cc#\LL	.	8A\	Mel-	8e\	mel-	16a\LL	mel-	16cc#\LL	mel-	.	.
.	.	.	16b\JJ)	.	16b\JJ	.	16dd\JJ	.	.	.	.	.	16b\JJ	.	16ee\JJ	.	.	.
=23	=23	=23	=23	=23	=23	=23	=23	=23	=23	=23	=23	=23	=23	=23	=23	=23	=23	=23
2A\	.	.	8cc#\`L	.	8cc#\L	.	8ee\'L	.	4A\	-chi-	4A/	-chi-	4cc#\	-chi-	(>4ee\	-chi-	.	.
.	.	.	(>8cc#\	.	8cc#\	.	8ee\'	.	.	.	.	.	.	.	.	.	.	.
.	.	.	8dd\	.	8dd\	.	(>8ff#\	.	4A\	-se-	4A/	-se-	8dd\L	.	8ff#\)	.	.	.
.	.	.	8cc#\J)	.	8cc#\J	.	8ee\J	.	.	.	.	.	8cc#\J	-se-	8ee\	-se-	.	.
!	!	!	!LO:LB:g=original	!	!	!	!	!	!	!	!	!	!	!	!	!	!	!
8A\L	.	.	16cc#/LL 16e/	.	8cc#/L 8e/	.	2ee\)	.	4A\	-dech.	2A/	-dech	2cc#\	-dech.	4ee\	-dech	.	.
.	.	.	16cc#/ 16e/	.	.	.	.	.	.	.	.	.	.	.	.	.	.	.
8E\	.	.	16cc#/ 16e/	.	8cc#/ 8e/	.	.	.	.	.	.	.	.	.	.	.	.	.
.	.	.	16cc#/ 16e/	.	.	.	.	.	.	.	.	.	.	.	.	.	.	.
8C#\	.	.	16cc#/ 16e/	.	8cc#/ 8e/	.	.	.	4r	.	.	.	.	.	4r	.	.	.
.	.	.	16cc#/ 16e/	.	.	.	.	.	.	.	.	.	.	.	.	.	.	.
8AA\J	.	.	16cc#/ 16e/	.	8cc#/J 8e/	.	.	.	.	.	.	.	.	.	.	.	.	.
.	.	.	16cc#/JJ 16e/	.	.	.	.	.	.	.	.	.	.	.	.	.	.	.
=24	=24	=24	=24	=24	=24	=24	=24	=24	=24	=24	=24	=24	=24	=24	=24	=24	=24	=24
!	!	!	!	!	!	!	!	!	!LO:LB:g=original	!	!	!	!	!	!	!	!	!
*tremolo	*	*	*	*	*	*	*	*	*	*	*	*	*	*	*	*	*	*
8G#X\L	6_ 5_	.	16b/LL 16e/	.	8b\L 8e\	.	(>8ee\L	.	2r	.	2r	.	2r	.	2r	.	.	.
.	.	.	16b/ 16e/	.	.	.	.	.	.	.	.	.	.	.	.	.	.	.
8G#\	.	.	16b/ 16e/	.	8b\ 8e\	.	8bb\	.	.	.	.	.	.	.	.	.	.	.
.	.	.	16b/ 16e/	.	.	.	.	.	.	.	.	.	.	.	.	.	.	.
8G#\	.	.	16b/ 16e/	.	8b\ 8e\	.	8ddd\	.	.	.	.	.	.	.	.	.	.	.
.	.	.	16b/ 16e/	.	.	.	.	.	.	.	.	.	.	.	.	.	.	.
8G#\J	.	.	16b/ 16e/	.	8b\J 8e\	.	8bb\J)	.	.	.	.	.	.	.	.	.	.	.
.	.	.	16b/JJ 16e/	.	.	.	.	.	.	.	.	.	.	.	.	.	.	.
*	*	*	*	*	*Xtremolo	*	*	*	*	*	*	*	*	*	*	*	*	*
8G#\L	.	.	16b/LL 16e/	.	8b/L 8e/	.	4.ee\	.	4r	.	4r	.	4r	.	4r	.	.	.
.	.	.	16b/ 16e/	.	.	.	.	.	.	.	.	.	.	.	.	.	.	.
8G#\	.	.	16b/ 16e/	.	8b/J 8e/	.	.	.	.	.	.	.	.	.	.	.	.	.
.	.	.	16b/JJ 16e/	.	.	.	.	.	.	.	.	.	.	.	.	.	.	.
8G#\	.	.	8b\L	.	8b\L	.	.	.	4E\	mel-	4e\	mel-	8r	.	8r	.	.	.
8G#\J	.	.	16g#X/L	.	16g#X/L	.	16b\LL	.	.	.	.	.	16g#X\LL	mel-	16b\LL	mel-	.	.
.	.	.	16a/JJ	.	16a/JJ	.	16cc#\JJ	.	.	.	.	.	16a\JJ	.	16cc#\JJ	.	.	.
=25	=25	=25	=25	=25	=25	=25	=25	=25	=25	=25	=25	=25	=25	=25	=25	=25	=25	=25
!	!	!	!	!	!	!	!	!	!	!	!	!	!LO:LB:g=original	!	!	!	!	!
8E\L	7_ #_	.	8b\`L	.	8b\`L	.	(>8dd\L	.	4e\	-chi-	4e\	-ch-	4b\	-chi-	(>4dd\	-chi-	.	.
8E\	.	.	(>8b\	.	(>8b\	.	8dd\	.	.	.	.	.	.	.	.	.	.	.
8E\	.	.	(8cc#\)	.	8cc#\	.	8ee\	.	4E\	-ſe-	4e\	-se-	8cc#\L	.	8ee\)	.	.	.
8E\J	.	.	8b\J)	.	8b\J)	.	8dd\J)	.	.	.	.	.	8b\J	-ſe-	8dd\	-se-	.	.
!	!	!	!	!	!LO:LB:g=original	!	!	!	!	!	!	!	!	!	!	!	!	!
*	*	*	*	*	*tremolo	*	*	*	*	*	*	*	*	*	*	*	*	*
8E\L	.	.	16b/LL 16e/	.	8b/L 8e/	.	2dd\	.	2E\	-dech,	2e\	-dech	2b\	-dech	2dd\	-dech	.	.
.	.	.	16b/ 16e/	.	.	.	.	.	.	.	.	.	.	.	.	.	.	.
8E\	.	.	16b/ 16e/	.	8b/ 8e/	.	.	.	.	.	.	.	.	.	.	.	.	.
.	.	.	16b/ 16e/	.	.	.	.	.	.	.	.	.	.	.	.	.	.	.
8E\	.	.	16b/ 16e/	.	8b/ 8e/	.	.	.	.	.	.	.	.	.	.	.	.	.
.	.	.	16b/ 16e/	.	.	.	.	.	.	.	.	.	.	.	.	.	.	.
8E\J	.	.	16b/ 16e/	.	8b/J 8e/	.	.	.	.	.	.	.	.	.	.	.	.	.
.	.	.	16b/JJ 16e/	.	.	.	.	.	.	.	.	.	.	.	.	.	.	.
*Xtremolo	*	*	*Xtremolo	*	*Xtremolo	*	*	*	*	*	*	*	*	*	*	*	*	*
=26	=26	=26	=26	=26	=26	=26	=26	=26	=26	=26	=26	=26	=26	=26	=26	=26	=26	=26
!	!	!	!	!	!	!	!LO:LB:g=original	!	!	!	!LO:LB:g=original	!	!	!	!LO:LB:g=original	!	!	!
!	!	!	!	!	!	!	!	!LO:DY:t=fort	!	!	!	!	!	!	!	!	!	!
8r	6 X	.	8e/L	f	8a/L 8e/	f	(>8cc#\L	f	4A\	ju-	8A/	Do-	8e\	Do-	4cc#\	de	4r	4r
!LO:TX:a:i:t=Tutti	!	!	!	!	!	!	!	!	!	!	!	!	!	!	!	!	!	!
8AA/L	.	.	8cc#/ 8e/	.	8cc#/ 8e/	.	8aa\)	.	.	.	8A/	-mi-	8e\	-mi-	.	.	.	.
8C#/	.	.	8cc#/ 8e/	.	8cc#/ 8e/	.	8aa\'	.	4A\	-di-	8A/	-nus	8e\	-nus	4cc#\	tor-	8a/L	8ee\L
8E\J	.	.	8cc#/J 8e/	.	8cc#/J 8e/	.	8aa\'J	.	.	.	8A/	a	8e\	a	.	.	8a/J	8ee\J
8C#/L	.	.	4.cc#/ 4.e/	.	4.cc#\ 4.e\	.	4.aa\	.	4A\	-ca-	4A/	dex-	4e\	dex-	4cc#\	-ren-	4a/	4ee\
8E\	.	.	.	.	.	.	.	.	.	.	.	.	.	.	.	.	.	.
8C#/	.	.	.	.	.	.	.	.	8A\	-bit	8G#X/L	-tris	4e\	-tris	8b\	-te	4r	4r
8AA/J	.	.	16b\LL	.	(>16b\LL	.	(>16gg#X\LL	.	8A\	in	8A\J	.	.	.	8cc#\	in	.	.
.	.	.	16cc#\JJ	.	16cc#\JJ)	.	16aa\JJ)	.	.	.	.	.	.	.	.	.	.	.
=27	=27	=27	=27	=27	=27	=27	=27	=27	=27	=27	=27	=27	=27	=27	=27	=27	=27	=27
!LO:LB:g=original	!	!	!	!	!	!	!	!	!	!	!	!	!	!	!	!	!	!
8r	.	.	(>8ee\L	.	(>8ee\L	.	(>8ccc#\L	.	4e\	na-	8c#\L	tu-	8e\L	tu-	8ee\L	vi-	1r	1r
8E\L	.	.	8dd\J)	.	8dd\J)	.	8bb\)	.	.	.	8B\J	.	8g#X\J	.	8dd\J	.	.	.
8G#X\	.	.	8dd\'L	.	8dd\`L	.	8bb\'	.	4e\	-ti-	4B\	-is	4b\	-is	4dd\	-a	.	.
8E\J	.	.	8dd\'J	.	8dd\`J	.	8bb\'J	.	.	.	.	.	.	.	.	.	.	.
*	*	*	*tremolo	*	*	*	*	*	*	*	*	*	*	*	*	*	*	*
!	!	!	!	!	!LO:TX:a:t=P:problem=mixed beam	!	!	!	!	!	!	!	!	!	!	!	!	!
8G#\L	.	.	16dd/LL 16e/	.	16e/LL	.	2bb\	.	8e\	-o-	2e\	con-	2b\	con-	4dd\	bi-	.	.
.	.	.	16dd/ 16e/	.	16dd\	.	.	.	.	.	.	.	.	.	.	.	.	.
8E\	.	.	16dd/ 16e/	.	16b\	.	.	.	8E\	-ni-	.	.	.	.	.	.	.	.
.	.	.	16dd/ 16e/	.	16dd\JJ	.	.	.	.	.	.	.	.	.	.	.	.	.
!	!	!	!	!	!LO:TX:a:t=P:problem=mixed beam	!	!	!	!	!	!	!	!	!	!	!	!	!
8G#\	.	.	16dd/ 16e/	.	16e/LL	.	.	.	8E\	-bus	.	.	.	.	4dd\	-bet	.	.
.	.	.	16dd/ 16e/	.	16dd\	.	.	.	.	.	.	.	.	.	.	.	.	.
8E\J	.	.	16dd/ 16e/	.	16b\	.	.	.	8E\	im-	.	.	.	.	.	.	.	.
.	.	.	16dd/JJ 16e/	.	16dd\JJ	.	.	.	.	.	.	.	.	.	.	.	.	.
*	*	*	*Xtremolo	*	*	*	*	*	*	*	*	*	*	*	*	*	*	*
=28	=28	=28	=28	=28	=28	=28	=28	=28	=28	=28	=28	=28	=28	=28	=28	=28	=28	=28
!	!	!	!	!	!	!	!	!	!	!	!	!	!	!	!	!	!	!LO:LB:g=original
8r	.	.	8cc#\L	.	8cc#\L	.	(>8aa\L	.	8A\L	-ple-	4e\	-fre-	4a\	-fre-	8cc#\	pro-	4r	4r
8Gn\L	4_ 2_	.	8ee\ 8a\	.	8ee\ 8a\	.	8ccc#\J)	.	8Gn\J	.	.	.	.	.	8ee\	-pte-	.	.
8G\	.	.	8ee\ 8a\	.	8ee\ 8a\	.	8ccc#\L	.	8G\	-bit	8A/	-git	8a\	-git	8ee\	-re-	8a/L	8ee\L
8G\J	.	.	8ee\J 8a\	.	8ee\J 8a\	.	8ccc#\J	.	8G\	ru-	8A/	in	8a\	in	8ee\	-a	8a/J	8ee\J
!	!	!	!LO:LB:g=original	!	!LO:LB:g=original	!	!	!	!LO:LB:g=original	!	!	!	!	!	!	!	!	!
!LO:TX:a:t=P:problem=mixed beam	!	!	!LO:TX:a:t=P:problem=dźwięk zamazany	!	!	!	!	!	!	!	!	!	!	!	!	!	!	!
8AA/L	.	.	16ee\LL	.	16a\LL	.	4.ccc#\	.	4G\	-i-	8A/	di-	8a\	di-	8ee\	ex-	4a/	4ee\
.	.	.	16ee\ 16a\	.	16gg\	.	.	.	.	.	.	.	.	.	.	.	.	.
8G\	.	.	16ee\ 16a\	.	16ee\	.	.	.	.	.	8A/	-e	8a\	-e	8ee\	-ul-	.	.
.	.	.	16ee\JJ 16a\	.	16gg\JJ	.	.	.	.	.	.	.	.	.	.	.	.	.
8E\	.	.	8ee\L	.	16a\LL	.	.	.	4G\	-nas	8A/	su-	8a\	ſu-	8ee\	-ta-	4r	4r
.	.	.	.	.	16gg\	.	.	.	.	.	.	.	.	.	.	.	.	.
8G\J	.	.	16dd\L	.	16ee\	.	16bb\LL	.	.	.	8A/	-e	8a\	-ae	16dd\LL	-vit	.	.
.	X X	.	16ee\JJ	.	16gg\JJ	.	16ccc#\JJ	.	.	.	.	.	.	.	16ee\JJ	.	.	.
=29	=29	=29	=29	=29	=29	=29	=29	=29	=29	=29	=29	=29	=29	=29	=29	=29	=29	=29
!	!	!	!	!	!	!	!	!	!	!	!LO:LB:g=original	!	!	!	!LO:LB:g=original	!	!LO:LB:g=original	!
8r	.	.	(>8ggn\L	.	8gg\L	.	(>8eee\L	.	4F#\	con-	4e\	re-	2a\	re-	(>4ff#\	ca-	4r	4r
8D\L	.	.	8ff#\)	.	8ff#\J	.	8ddd\')	.	.	.	.	.	.	.	.	.	.	.
8F#\	.	.	8ff#\`	.	8ff#\L 8a\	.	8ddd\'	.	4F#\	-quas-	4d\	.	.	.	4ee\)	.	8dd\L	8ff#\L
8A\J	.	.	8ff#\`J	.	8ff#\J 8a\	.	8ddd\'J	.	.	.	.	.	.	.	.	.	8dd\J	8ff#\J
8D\L	.	.	16a\LL	.	16a\LL	.	4.ddd\	.	8F#\L	-ſa-	2d\	-ges	2a\	-ges	2ff#\	-put	4dd\	4ff#\
.	.	.	16ff#\	.	16ff#\	.	.	.	.	.	.	.	.	.	.	.	.	.
8A\	.	.	16dd\	.	16dd\	.	.	.	8A\J	.	.	.	.	.	.	.	.	.
.	.	.	16ff#\JJ	.	16ff#\JJ	.	.	.	.	.	.	.	.	.	.	.	.	.
!	!	!	!	!	!	!	!	!	!LO:TX:a:t=P:problem=mixed beam	!	!	!	!	!	!	!	!	!
8F#\	.	.	16a\LL	.	16a\LL	.	.	.	8F#\L	-bit	.	.	.	.	.	.	4r	4r
.	.	.	16ff#\	.	16ff#\	.	.	.	.	.	.	.	.	.	.	.	.	.
8D\J	.	.	16dd\	.	16dd\	.	8aa\	.	8D/J	.	.	.	.	.	.	.	.	.
.	.	.	16ff#\JJ	.	16ff#\JJ	.	.	.	.	.	.	.	.	.	.	.	.	.
=30	=30	=30	=30	=30	=30	=30	=30	=30	=30	=30	=30	=30	=30	=30	=30	=30	=30	=30
!	!	!	!	!	!	!	!	!	!	!	!	!	!LO:LB:g=original	!	!	!	!	!
!	!	!	!	!	!	!	!	!	!	!	!	!	!	!	!LO:TX:a:t=2	!	!	!
4r	.	.	8ff#\L 8a\	.	8ff#\L 8a\	.	8ddd\L	.	8D/	ca-	8f#\	ca-	8dd\	ca-	0r	.	4r	4aa\
.	.	.	(>8ff#\	.	(>8ff#\	.	8aa\	.	8D/	-pi-	8f#\	-pi-	8a\	-pi-	.	.	.	.
4d\	.	.	8gg\	.	8gg\	.	8bb\	.	8D/	-ta	8g\	-ta	8b\	-ta	.	.	4ff#\	4r
.	.	.	8ff#\J)	.	8ff#\J)	.	8aa\J	.	8D/	in	8f#\	in	8a\	in	.	.	.	.
!	!	!	!	!	!	!	!LO:LB:g=original	!	!	!	!	!	!	!	!	!	!	!
4c#\	6 5	.	(>8ff#\L	.	(>8ff#\L	.	(>8aa\L	.	8C#/	ter-	8f#\L	ter-	8a\L	ter-	.	.	8ff#\L	8aa\L
.	.	.	8ee\)	.	8ee\)	.	8gg\	.	8C#/	-ra	8e\J	.	8g\J	.	.	.	8ee\	8gg\
4d\	.	.	(>8ee\	.	(>8ee\	.	8gg\	.	4D/	mul-	8e\	-ra	8g\	-ra	.	.	8ee\	8gg\
.	.	.	8dd\J)	.	8dd\J)	.	8ff#\J)	.	.	.	8d\	mul-	8f#\	mul-	.	.	8dd\J	8ff#\J
=31	=31	=31	=31	=31	=31	=31	=31	=31	=31	=31	=31	=31	=31	=31	=31	=31	=31	=31
!	!	!	!	!	!LO:LB:g=original	!	!	!	!	!	!	!	!	!	!	!	!	!
*	*	*	*	*	*	*	*	*	*	*	*	*	*	*	*	*	*2\right	*2\right
8A\L	6_ 4_	.	2dd\	.	2dd\	.	2ff#\	.	8A\L	-to-	2d\	-to-	2f#\	-to-	.	.	2dd\	2ff#\
8G#X\	.	.	.	.	.	.	.	.	8G#X\	.	.	.	.	.	.	.	.	.
8A\	.	.	.	.	.	.	.	.	8A\	.	.	.	.	.	.	.	.	.
8G#\J	.	.	.	.	.	.	.	.	8G#\J	.	.	.	.	.	.	.	.	.
8A\L	5 3	.	(>8cc#\L	.	(>8cc#\L	.	4ee\	.	4A\	-rum.	4c#\	-rum	4e\	-rum	.	.	4a/	4ee\
8Gn\	.	.	8b\	.	8b\	.	.	.	.	.	.	.	.	.	.	.	.	.
8F#\	.	.	8a\	.	8a\	.	4r	.	4r	.	4r	.	4r	.	.	.	4r	4r
8E\J	.	.	8g\J)	.	8g\J)	.	.	.	.	.	.	.	.	.	.	.	.	.
=32	=32	=32	=32	=32	=32	=32	=32	=32	=32	=32	=32	=32	=32	=32	=32	=32	=32	=32
!LO:LB:g=original	!	!	!LO:LB:g=original	!	!	!	!	!	!LO:LB:g=original	!	!	!	!	!	!	!	!	!
4D\	.	.	4ff#/ 4a/ 4d/	.	4ff#\ 4a\ 4d\	.	4ff#/ 4a/ 4d/	.	4D/	Glo-	4A/	Glo-	4f#\	glo-	4dd\	Glo-	4d/	4dd\
8F#\L	.	.	8aa\L	.	8aa\L	.	8aa\L	.	8D/	-ri-	8A/	-ri-	8f#\	-ri-	8dd\	-ri-	8f#/L	8dd\L
8A\J	.	.	8ff#\J	.	8ff#\J	.	8ff#\J	.	8D/	-a	8A/	-a	8f#\	-a	8dd\	-a	8a/J	8dd\J
8d\L	.	.	4.dd\	.	8dd\L	.	4.dd\	.	4F#\	Pa-	4A/	Pa-	4f#\	Pa-	4dd\	Pat-	4f#/	4.dd\
8A\	.	.	.	.	8a\J	.	.	.	.	.	.	.	.	.	.	.	.	.
!	!	!	!	!	!	!	!	!	!	!	!LO:LB:g=original	!	!	!	!	!	!	!
8F#\	.	.	.	.	8f#/L	.	.	.	8D/	-tri	8A/	-tri	8f#\	-tri	8dd\	-ri	8a/L	.
8D\J	.	.	8a\	.	8a/J	.	8ff#\	.	8D/	et	8A/	et	8a\	et	8ff#\	et	8dd\J	8ff#\
=33	=33	=33	=33	=33	=33	=33	=33	=33	=33	=33	=33	=33	=33	=33	=33	=33	=33	=33
4A\	.	.	(<8g/L	.	(<8g/L	.	12ee\L	.	8A\	Fi-	8A/	fi-	8g\	fi-	16ee\LL	fi-	4a/	4ee\
.	.	.	.	.	.	.	.	.	.	.	.	.	.	.	16ff#\JJ	.	.	.
.	.	.	.	.	.	.	12ff#\	.	.	.	.	.	.	.	.	.	.	.
.	.	.	8a/)	.	8a/)	.	.	.	8A\	-li-	8A/	-li-	8g\	-li-	8ee\	-li-	.	.
.	.	.	.	.	.	.	12ee\J	.	.	.	.	.	.	.	.	.	.	.
4D\	.	.	(<8f#/	.	(<8f#/	.	8dd\'L	.	8D/	-o	8A/	-o	8f#\	-o	8dd\	-o	4f#/	4dd\
.	.	.	8a/J)	.	8a/J)	.	8ff#\'J	.	8F#\	et	8A/	et	8a\	et	8ff#\	et	.	.
4A\	.	.	(<8g/L	.	(<8g/L	.	12ee\L	.	8A\	fi-	8A/	fi-	8g\	fi-	16ee\LL	fi-	4a/	4ee\
.	.	.	.	.	.	.	.	.	.	.	.	.	.	.	16ff#\JJ	.	.	.
.	.	.	.	.	.	.	12ff#\	.	.	.	.	.	.	.	.	.	.	.
.	.	.	8a/)	.	8a/)	.	.	.	8A\	-li-	8A/	-li-	4g\	-li-	8ee\	-li-	.	.
.	.	.	.	.	.	.	12ee\J	.	.	.	.	.	.	.	.	.	.	.
4D\	.	.	(<8f#/	.	(<8f#/	.	4dd\	.	4D/	o	4A/	-o	.	.	4dd\	-o	4f#/	4dd\
.	.	.	8a/J)	.	8a/J)	.	.	.	.	.	.	.	8f#\	-o	.	.	.	.
=34	=34	=34	=34	=34	=34	=34	=34	=34	=34	=34	=34	=34	=34	=34	=34	=34	=34	=34
!	!	!	!	!	!	!	!	!	!	!	!	!	!LO:LB:g=original	!	!LO:LB:g=original	!	!	!
4D\	.	.	4dd\	.	4dd\ 4d\	.	4ff#/ 4a/ 4d/	.	4d\	et	4A/	et	4f#\	et	4ff#\	et	4r	4r
8F#\L	.	.	8aa\L	.	8aa\L	.	8ddd\L	.	4d\	Spi-	4A/	spi-	4f#\	Spi-	4dd\	Spi-	8dd\L	8ff#\L
8A\J	.	.	8ff#\J	.	8ff#\J	.	8aa\J	.	.	.	.	.	.	.	.	.	8ff#\J	8aa\J
!	!	!	!	!	!LO:LB:g=original	!	!	!	!	!	!	!	!	!	!	!	!	!LO:LB:g=original
8d\L	.	.	4.dd\	.	8dd\L	.	4.ff#\	.	4d\	-ri-	4A/	-ri-	4f#\	-ri-	4dd\	-ri-	4.dd\	4.ff#\
8A\	.	.	.	.	8a\	.	.	.	.	.	.	.	.	.	.	.	.	.
8F#\	.	.	.	.	8dd\	.	.	.	8D/	-tu-	4A/	-tui	8a\	-tu-	8dd\	-tu-	.	.
8D\J	.	.	8ff#\	.	8ff#\J	.	8aa\	.	8d\	-i	.	.	8a\	-i	8ff#\	-i	8ff#\	8aa\
=35	=35	=35	=35	=35	=35	=35	=35	=35	=35	=35	=35	=35	=35	=35	=35	=35	=35	=35
!	!	!	!	!	!	!	!	!	!	!	!	!	!	!	!	!	!LO:TX:a:t=P:problem=mixed beam	!
4A\	.	.	(>8ee\L	.	8ee\L	.	12gg\L	.	4A\	San-	4A/	San-	4g\	S(an)c-	4ee\	San-	8ee\L	4gg\
.	.	.	.	.	.	.	12aa\	.	.	.	.	.	.	.	.	.	.	.
.	.	.	8aJ\)	.	8a\J	.	.	.	.	.	.	.	.	.	.	.	8a/J	.
.	.	.	.	.	.	.	12gg\J	.	.	.	.	.	.	.	.	.	.	.
8D\L	.	.	(>8dd\L	.	8dd\L	.	8ff#\L	.	4D\	-cto	4A/	-cto	4f#\	-to	4dd\	-cto	4dd\	4ff#\
8F#\J	.	.	8a\J)	.	8a\J	.	8aa\J	.	.	.	.	.	.	.	.	.	.	.
!	!	!	!	!	!	!	!LO:LB:g=original	!	!LO:LB:g=original	!	!	!	!	!	!	!	!LO:TX:a:t=P:problem=mixed beam	!
*	*	*	*	*	*	*	*	*	*	*	*	*ij	*Xtuplet	*	*Xtuplet	*ij	*	*
4A\	.	.	(>8ee\L	.	8ee\L	.	12gg\L	.	(>4A\	San-	4A/	San-	12g\L	ſanc-	12ee\L	San-	8ee\L	4gg\
.	.	.	.	.	.	.	12aa\	.	.	.	.	.	12a\	.	12ff#\	.	.	.
.	.	.	8a\J)	.	8a\J	.	.	.	.	.	.	.	.	.	.	.	8a/J	.
.	.	.	.	.	.	.	12gg\J	.	.	.	.	.	12g\J	.	12ee\J	.	.	.
4D\	.	.	(>8f#/L	.	4dd\	.	4ff#\	.	4D/)	-cto	4A/	-cto	4f#\	-to	4dd\	-cto	4dd\	4ff#\
*	*	*	*	*	*	*	*	*	*	*	*	*Xij	*	*	*	*Xij	*	*
.	.	.	8a/J)	.	.	.	.	.	.	.	.	.	.	.	.	.	.	.
=36	=36	=36	=36	=36	=36	=36	=36	=36	=36	=36	=36	=36	=36	=36	=36	=36	=36	=36
!	!	!	!LO:LB:g=original	!	!	!	!	!	!	!	!LO:LB:g=original	!	!	!	!	!	!LO:LB:g=original	!
*tremolo	*	*	*	*	*	*	*	*	*	*	*	*	*	*	*	*	*	*
!	!	!	!	!	!LO:TX:a:t=P:problem=znak repetycji na początku taktu	!	!	!	!	!	!	!	!	!	!	!	!	!
8d\L	.	.	4ff#\`	.	4ff#\	.	4aa\	.	8d\L	Si-	4f#\	si-	4a\	ſi-	4dd\	Si-	4ff#\	4aa\
8d\	.	.	.	.	.	.	.	.	8A\J	.	.	.	.	.	.	.	.	.
8d\	.	.	(>16ff#\LL	.	(>16ff#\LL	.	16aa\LL	.	8d\L	-cut	16f#\LL	-cut	(>16a\LL	-cut	4dd\	-cut	8ff#\L	8aa\L
.	.	.	16gg\	.	16gg\	.	16bb\	.	.	.	16g\	.	16b\	.	.	.	.	.
8d\J	.	.	16ff#\	.	16ff#\	.	16aa\	.	8A\J	.	16f#\	.	16a\	.	.	.	8ee\J	8gg\J
.	.	.	16ee\JJ)	.	16ee\JJ)	.	16gg\JJ	.	.	.	16e\JJ	.	16g\JJ)	.	.	.	.	.
!	!	!	!	!	!LO:TX:a:t=P:problem=mixed beam	!	!	!	!	!	!	!	!	!	!	!	!	!
8d\L	.	.	8dd\L	.	8dd\L	.	4ff#\	.	4d\	e-	4d\	e-	4a\	e-	4dd\	e-	4dd\	4ff#\
8A\	.	.	8a\J	.	8a/J	.	.	.	.	.	.	.	.	.	.	.	.	.
8F#\	.	.	8f#/L	.	8f#/L	p	8r	.	4d\	-rat	4d\	-rat	4a\	-rat	4dd\	-rat	4r	4r
8D\J	.	.	8a/J	.	8a/J	.	(>16dd\LL	.	.	.	.	.	.	.	.	.	.	.
!	!	!LO:DY:t=piano	!	!	!	!	!	!LO:DY:t=piano	!	!	!	!	!	!	!	!	!	!
.	.	p	.	p	.	.	16ee\JJ)	p	.	.	.	.	.	.	.	.	.	.
=37	=37	=37	=37	=37	=37	=37	=37	=37	=37	=37	=37	=37	=37	=37	=37	=37	=37	=37
4D\	.	.	(>8dd\L	.	(>8dd\L	.	8ff#\'L	.	4d\	in	4A/	in	8f#\L	in	8dd\L	in	1r	1r
.	.	.	8ee\)	.	8ee\	.	8gg\'	.	.	.	.	.	8g\J	.	8ee\J	.	.	.
4D\	.	.	(>8dd\	.	8dd\)	.	8ff#\'	.	4d\	prin-	4A/	prin-	8f#\L	prin-	8dd\L	prin-	.	.
.	.	.	8ee\J)	.	8ee\J	.	8gg\'J	.	.	.	.	.	8g\J	.	8ee\J	.	.	.
!	!	!	!	!	!	!	!	!	!	!	!	!	!	!	!LO:LB:g=original	!	!	!
4D\	.	.	(>8ff#\L	.	(>8ff#\L	.	8aa\'L	.	8d\	-ci-	8A/	-ci-	8a\L	-ci-	8ff#\L	-ci-	.	.
.	.	.	8dd\)	.	8dd\	.	8ff#\'	.	8d\	-pi-	8A/	-pi-	8f#\J	.	8dd\J	.	.	.
4D\	.	.	(>8gg\	.	8gg\	.	8bb\'	.	4D/	-o	4A/	-o	8b\L	-pi-	8gg\L	-pi-	.	.
.	.	.	8ff#\J)	.	8ff#\J)	.	8aa\'J	.	.	.	.	.	8a\J	.	8ff#\J	.	.	.
=38	=38	=38	=38	=38	=38	=38	=38	=38	=38	=38	=38	=38	=38	=38	=38	=38	=38	=38
!LO:LB:g=original	!	!	!	!	!LO:LB:g=original	!	!	!	!	!	!	!	!LO:LB:g=original	!	!	!	!	!
!LO:TX:b:i:t=Tutti.	!	!	!	!	!	!	!	!LO:DY:t=forte	!	!	!	!	!	!	!	!	!	!
8A\L	7	.	4ee\	f	4ee\`	f	4gg\	f	2A\	et	2A/	et	4g\	-o	4ee\	-o	4ee\	4gg\
8A\	.	.	.	.	.	.	.	.	.	.	.	.	.	.	.	.	.	.
8A\	.	.	(>16ee\LL	.	(>16ee\LL	.	(>16gg\LL	.	.	.	.	.	(>16g\LL	.	8ee\L	et	8ee\L	8gg\L
.	.	.	16ff#\	.	16ff#\	.	16aa\	.	.	.	.	.	16a\	.	.	.	.	.
8A\J	.	.	16ee\	.	16ee\	.	16gg\	.	.	.	.	.	16g\	et	8dd\J	.	8dd\J	8ff#\J
.	.	.	16dd\JJ)	.	16dd\JJ)	.	16ff#\JJ)	.	.	.	.	.	16f#\JJ)	.	.	.	.	.
8A\L	.	.	4cc#\	.	8cc#\L	.	4ee\	.	4A\	nunc	4A/	nunc	4e\	nunc	4cc#\	nunc	4a/	4ee\
8E\J	.	.	.	.	8b\J	.	.	.	.	.	.	.	.	.	.	.	.	.
8C#\L	.	.	8r	.	8a\L	.	8r	.	4A\	et	4A/	et	8r	.	8r	.	4r	4r
!	!	!	!	!	!LO:SIC: s=16b:v	!	!	!LO:DY:t=piano	!	!	!	!	!	!	!	!	!	!
8AA\J	.	.	16a/LL	p	16b\L	.	16cc#\LL	p	.	.	.	.	16c#\LL	et	16a\LL	et	.	.
!	!	!	!	!	!LO:SIC: s=16cc#:v	!	!	!	!	!	!	!	!	!	!	!	!	!
.	.	.	16b\JJ	.	16cc#\JJ	p	16dd\JJ	.	.	.	.	.	16d\JJ	.	16b\JJ	.	.	.
=39	=39	=39	=39	=39	=39	=39	=39	=39	=39	=39	=39	=39	=39	=39	=39	=39	=39	=39
!	!	!LO:DY:t=piano	!	!	!	!	!	!	!	!	!	!	!	!	!	!	!	!
4AA/	.	p	(>8cc#\L	.	(>8cc#\L	.	8ee\L	.	4A\	ſem-	4A/	Sem-	(>8e\L	nunc	(>8cc#\L	nunc	1r	1r
.	.	.	8dd\)	.	8dd\)	.	8ff#\	.	.	.	.	.	8f#\J)	.	8dd\)	.	.	.
4AA/	.	.	(>8cc#\	.	(>8cc#\	.	8ee\	.	4AA/	-per	4A/	-per	8e\L	.	(>8cc#\	.	.	.
.	.	.	8dd\J)	.	8dd\J)	.	8ff#\J	.	.	.	.	.	8f#\J	.	8dd\J)	.	.	.
4C#/	.	.	(>8ee\L	.	(>8ee\L	.	8gg\L	.	4A\	et	4A/	et	4g\	.	4ee\	.	.	.
.	.	.	8cc#\)	.	8cc#\)	.	8ee\	.	.	.	.	.	.	.	.	.	.	.
4C#/	.	.	(>8ff#\	.	(>8ff#\	.	8aa\	.	4c#\	in	4A/	in	8a\L	et	8ff#\L	et	.	.
.	.	.	8ee\J)	.	8ee\J)	.	8gg\J	.	.	.	.	.	8g\J	.	8ee\J	.	.	.
=40	=40	=40	=40	=40	=40	=40	=40	=40	=40	=40	=40	=40	=40	=40	=40	=40	=40	=40
!	!	!	!	!	!	!	!LO:LB:g=original	!	!LO:LB:g=original	!	!	!	!	!	!	!	!	!
!LO:TX:a:i:t=Tutti	!	!	!	!LO:DY:rj	!	!	!	!LO:DY:t=for.	!	!	!	!	!	!	!	!	!	!
8D\L	6	.	16f#/LL	f	(<16f#/LL	f	16ff#\LL	f	8d\	ſae-	8A/	Sae-	4a\	sem-	4ff#\	Sem-	2dd\	2ff#\
.	.	.	16a/	.	16a/)	.	16gg\	.	.	.	.	.	.	.	.	.	.	.
8D\	.	.	16f#/	.	(<16f#/	.	16ff#\	.	8d\	-cu-	8A/	-cu-	.	.	.	.	.	.
.	.	.	16a/JJ	.	16a/JJ)	.	16ee\JJ	.	.	.	.	.	.	.	.	.	.	.
*	*	*	*rep	*	*	*	*	*	*	*	*	*	*	*	*	*	*	*
8D\	.	.	16f#/LL	.	8f#/`L	.	8dd\L	.	4d\	-la	4A/	-la	4a\	-per	4dd\	-per	.	.
.	.	.	16a/	.	.	.	.	.	.	.	.	.	.	.	.	.	.	.
8D\J	.	.	16f#/	.	8dd\`J	.	8ff#\J	.	.	.	.	.	.	.	.	.	.	.
.	.	.	16a/JJ	.	.	.	.	.	.	.	.	.	.	.	.	.	.	.
*	*	*	*Xrep	*	*	*	*	*	*	*	*	*	*	*	*	*	*	*
!	!	!	!	!	!	!	!	!	!	!	!LO:LB:g=original	!	!	!	!	!	!	!
8C#\L	6 5	.	(>16ee\LL	.	(>16ee\LL	.	16gg\LL	.	4c#\	ſae-	4e\	et	4a\	et	4gg\	et	2ee\	2gg\
.	.	.	16ff#\	.	16ff#\	.	16aa\	.	.	.	.	.	.	.	.	.	.	.
8C#\	.	.	16ee\	.	16ee\	.	16gg\	.	.	.	.	.	.	.	.	.	.	.
.	.	.	16dd\JJ)	.	16dd\JJ)	.	16ff#\JJ	.	.	.	.	.	.	.	.	.	.	.
8C#\	.	.	8cc#\`L	.	8cc#\`L	.	8ee\L	.	4c#\	-cu-	8c#\L	in	4a\	in	8ee\L	in	.	.
8C#\J	.	.	8ee\`J	.	8ee\`J	.	8gg\J	.	.	.	8e\J	.	.	.	8gg\J	.	.	.
=41	=41	=41	=41	=41	=41	=41	=41	=41	=41	=41	=41	=41	=41	=41	=41	=41	=41	=41
!	!	!	!LO:LB:g=original	!	!LO:LB:g=original	!	!	!	!	!	!	!	!	!	!LO:LB:g=original	!	!	!
8D\L	.	.	(>16ff#\LL	.	(>16ff#\LL	f	16aa\LL	.	4d\	-lo-	8d\	sae-	8a\	ſae-	8ff#\	Sae-	4ff#\	4aa\
.	.	.	16gg\	.	16gg\	.	16bb\	.	.	.	.	.	.	.	.	.	.	.
8D\	.	.	16ff#\	.	16ff#\	.	16aa\	.	.	.	8d\	-cu-	8a\	-cu-	8ff#\	-cu-	.	.
.	.	.	16ee\JJ)	.	16ee\JJ)	.	16gg\JJ	.	.	.	.	.	.	.	.	.	.	.
8D\	.	.	8dd\L	.	8dd\`L	.	8ff#\L	.	4d\	-rum	4f#\	-la	4a\	-la	4dd\	-la	4r	4r
8D\J	.	.	8ff#\J	.	8ff#\`J	.	8aa\J	.	.	.	.	.	.	.	.	.	.	.
*	*	*	*tremolo	*	*tremolo	*	*	*	*	*	*	*	*	*	*	*	*	*
!	!	!	!	!	!	!	!	!	!	!	!	!	!LO:N:vis=8	!	!	!	!	!
8G\L	.	.	16gg\LL 16dd\	.	16gg\LL 16dd\	.	2bb\	.	4G\	a-	4d\	sae-	4b\	ſae-	4gg\	Sae-	2r	2r
.	.	.	16gg\ 16dd\	.	16gg\ 16dd\	.	.	.	.	.	.	.	.	.	.	.	.	.
8A\	.	.	16gg\ 16dd\	.	16gg\ 16dd\	.	.	.	.	.	.	.	.	.	.	.	.	.
.	.	.	16gg\ 16dd\	.	16gg\ 16dd\	.	.	.	.	.	.	.	.	.	.	.	.	.
8B\	.	.	16gg\ 16dd\	.	16gg\ 16dd\	.	.	.	4G\	-men	4d\	-cu-	4b\	-cu-	4gg\	-cu-	.	.
.	.	.	16gg\ 16dd\	.	16gg\ 16dd\	.	.	.	.	.	.	.	.	.	.	.	.	.
8c#\J	.	.	16gg\ 16dd\	.	16gg\ 16dd\	.	.	.	.	.	.	.	.	.	.	.	.	.
.	.	.	16gg\JJ 16dd\	.	16gg\JJ 16dd\	.	.	.	.	.	.	.	.	.	.	.	.	.
*	*	*	*Xtremolo	*	*Xtremolo	*	*	*	*	*	*	*	*	*	*	*	*	*
=42	=42	=42	=42	=42	=42	=42	=42	=42	=42	=42	=42	=42	=42	=42	=42	=42	=42	=42
4d\	.	.	4ff#\	.	4ff#\	.	8aa\L	.	4D/	a-	4f#\	-lo-	4a\	-lo-	4ff#\	-lo-	4ff#\	4aa\
.	.	.	.	.	.	.	8ddd\	.	.	.	.	.	.	.	.	.	.	.
4G\	.	.	(>8gg\L	.	8gg\L	.	8bb\	.	4G\	-men	4d\	-rum	4b\	-rum	4gg\	-rum	8r	8r
.	.	.	8ee\J)	.	8ee\J	.	8gg\J	.	.	.	.	.	.	.	.	.	8ee\	8gg\
4A\	.	.	(>4dd\	.	4dd\	.	(>4ff#\	.	4A\	a-	4d\	a-	4a\	a-	4ff#\	a-	4dd\	4ff#\
!	!	!	!	!	!LO:TX:a:t=P:problem=znak repetycji na końcu taktu	!	!	!	!	!	!	!	!	!	!	!	!	!
4AA/	.	.	4cc#\)	.	4cc#\	.	4ee\)	.	4AA/	-men	4c#\	-men	4a\	-men	4ee\	-men	4a/	4ee\
=43	=43	=43	=43	=43	=43	=43	=43	=43	=43	=43	=43	=43	=43	=43	=43	=43	=43	=43
!	!	!	!	!	!	!	!	!	!	!	!	!	!LO:LB:g=original	!	!	!	!	!LO:LB:g=original
!	!	!LO:DY:t=piano	!	!	!LO:TX:a:t=P:problem=takty 43-49 zapisane repetycją	!	!	!LO:DY:t=p.	!	!	!	!	!	!	!	!	!	!
8D\L	.	p	4ff#\	p	4ff#\	.	4aa\	p	(>8d\L	ſi-	4f#\	si-	4a\	ſi-	4dd\	Si-	4f#/	4dd\
8d\	.	.	.	.	.	.	.	.	8A\)	.	.	.	.	.	.	.	.	.
8d\	.	.	16ff#\LL	.	(>16ff#\LL	.	(>16aa\LL	.	(>8d\	-cut	16f#\LL	-cut	(>16a\LL	-cut	4dd\	-cut	4r	4r
.	.	.	16gg\	.	16gg\	.	16bb\	.	.	.	16g\	.	16b\	.	.	.	.	.
8d\J	.	.	16ff#\	.	16ff#\	.	16aa\	.	8A\J)	.	16f#\	.	16a\	.	.	.	.	.
.	.	.	16ee\JJ	.	16ee\JJ)	.	16gg\JJ)	.	.	.	16e\JJ	.	16g\JJ)	.	.	.	.	.
!	!	!	!	!	!LO:TX:a:t=P:problem=mixed beam	!	!	!	!	!	!	!	!	!	!	!	!	!
8d\L	.	.	8dd\L	.	8dd\L	.	4ff#\	.	4d\	e-	(>8e\L	e-	4a\	e-	4dd\	e-	2r	2r
8A\	.	.	8a\J	.	8a/J	.	.	.	.	.	8d\J)	.	.	.	.	.	.	.
8F#\	.	.	8f#/L	.	8f#/L	p	8r	.	4d\	-rat	4d\	-rat	4a\	-rat	4dd\	-rat	.	.
!	!	!	!	!	!	!	!LO:TX:a:i:t=Solo	!	!	!	!	!	!	!	!	!	!	!
8D\J	.	.	8a/J	.	8a/J	.	16dd\LL	.	.	.	.	.	.	.	.	.	.	.
.	.	.	.	p	.	.	16ee\JJ	.	.	.	.	.	.	.	.	.	.	.
=44	=44	=44	=44	=44	=44	=44	=44	=44	=44	=44	=44	=44	=44	=44	=44	=44	=44	=44
!LO:LB:g=original	!	!	!	!	!	!	!	!	!	!	!LO:LB:g=original	!	!	!	!	!	!	!
!	!	!	!	!	!	!	!	!	!	!	!	!	!	!	!	!	!LO:TX:a:t=3	!LO:TX:a:t=3
4D\	.	.	(>8dd\L	.	(>8dd\L	.	8ff#\L	.	4d\	in	4A/	in	8f#\L	in	(>8dd\L	in	0r	0r
.	.	.	8ee\)	.	8ee\	.	8gg\	.	.	.	.	.	8g\J	.	8ee\J)	.	.	.
4D\	.	.	(>8dd\	.	8dd\)	.	8ff#\	.	4d\	prin-	4A/	prin-	8f#\L	prin-	(>8dd\L	prin-	.	.
.	.	.	8ee\J)	.	8ee\J	.	8gg\J	.	.	.	.	.	8g\J	.	8ee\J)	.	.	.
!	!	!	!	!	!	!	!LO:LB:g=original	!	!LO:LB:g=original	!	!	!	!	!	!	!	!	!
4D\	.	.	(>8ff#\L	.	(>8ff#\L	.	8aa\L	.	8d\	-ci-	8A/	-ci-	8a\L	-ci-	(>8ff#\L	-ci-	.	.
.	.	.	8dd\)	.	8dd\	.	8ff#\	.	8d\	-pi-	8A/	-pi-	8f#\J	.	8dd\J)	.	.	.
4D\	.	.	(>8gg\	.	8gg\	.	8bb\	.	4D/	-o	4A/	-o	8b\L	-pi-	(>8gg\L	-pi-	.	.
.	.	.	8ff#\J)	.	8ff#\J)	.	8aa\J	.	.	.	.	.	8a\J	.	8ff#\J)	.	.	.
=45	=45	=45	=45	=45	=45	=45	=45	=45	=45	=45	=45	=45	=45	=45	=45	=45	=45	=45
!	!	!	!LO:LB:g=original	!	!LO:LB:g=original	!	!	!	!	!	!	!	!	!	!LO:LB:g=original	!	!	!
8A\L	.	.	4ee\	.	4ee\`	f	4gg\	.	2A\	et	2A/	et	4g\	-o	4ee\	-o	.	.
8A\	.	.	.	.	.	.	.	.	.	.	.	.	.	.	.	.	.	.
*	*	*	*	*	*	*	*	*	*	*	*	*	*	*	*tuplet	*	*	*
8A\	.	.	(>16ee\LL	.	(>16ee\LL	.	16gg\LL	.	.	.	.	.	16g\LL	et	12ee\L	et	.	.
.	.	.	16ff#\	.	16ff#\	.	16aa\	.	.	.	.	.	16a\	.	.	.	.	.
.	.	.	.	.	.	.	.	.	.	.	.	.	.	.	12dd\	.	.	.
8A\J	.	.	16ee\)	.	16ee\	.	16gg\	.	.	.	.	.	16g\	.	.	.	.	.
.	.	.	.	.	.	.	.	.	.	.	.	.	.	.	12cc#\J	.	.	.
.	.	.	16dd\JJ	.	16dd\JJ)	.	16ff#\JJ	.	.	.	.	.	16f#\JJ	.	.	.	.	.
8A\L	.	.	4cc#\	.	8cc#\L	.	4ee\	.	4A\	nunc	4A/	nunc	4e\	nunc	4cc#\	nunc	.	.
8E\J	.	.	.	.	8b\J	.	.	.	.	.	.	.	.	.	.	.	.	.
8C#/L	.	.	8r	.	8a\L	.	8r	.	4A\	et	4A/	et	8r	.	8r	.	.	.
!	!	!	!	!	!LO:SIC: s=16b:v	!	!	!	!	!	!	!	!	!	!	!	!	!
8AA/J	.	.	16a/LL	.	16b\L	.	16cc#\LL	.	.	.	.	.	16c#\LL	et	16a\LL	et	.	.
!	!	!	!	!	!LO:SIC: s=16cc#:v	!	!	!	!	!	!	!	!	!	!	!	!	!
.	.	.	16b\JJ	p	16cc#\JJ	p	16dd\JJ	.	.	.	.	.	16d\JJ	.	16b\JJ	.	.	.
=46	=46	=46	=46	=46	=46	=46	=46	=46	=46	=46	=46	=46	=46	=46	=46	=46	=46	=46
4AA/	.	.	8cc#\L	.	(>8cc#\L	.	(>16ee\LL	.	4A\	ſem-	4A/	sem-	8e\L	ſem-	(>8cc#\L	nunc	1r	1r
.	.	.	.	.	.	.	16ff#\)	.	.	.	.	.	.	.	.	.	.	.
.	.	.	8dd\	.	8dd\)	.	(>16ee\	.	.	.	.	.	8f#\J	.	8dd\	.	.	.
.	.	.	.	.	.	.	16ff#\JJ)	.	.	.	.	.	.	.	.	.	.	.
4AA/	.	.	8cc#\	.	(>8cc#\	.	(>16ee\LL	.	4AA/	-per	4A/	-per	8e\L	-per	8cc#\	.	.	.
.	.	.	.	.	.	.	16ff#\)	.	.	.	.	.	.	.	.	.	.	.
.	.	.	8dd\J	.	8dd\J)	.	(>16ee\	.	.	.	.	.	8f#\J	.	8dd\J	.	.	.
.	.	.	.	.	.	.	16ff#\JJ)	.	.	.	.	.	.	.	.	.	.	.
4C#/	.	.	8ee\L	.	(>8ee\L	.	(>8gg\L	.	4A\	et	4A/	et	(>4g\	et	4ee\)	.	.	.
.	.	.	8cc#\	.	8cc#\)	.	8ee\)	.	.	.	.	.	.	.	.	.	.	.
4C#/	.	.	8ff#\	.	(>8ff#\	.	(>8aa\	.	4c#\	in	4A/	in	8a\L	.	8ff#\L	et	.	.
.	.	.	8ee\J	.	8ee\J)	.	8gg\J)	.	.	.	.	.	8g\J)	.	8ee\J	.	.	.
=47	=47	=47	=47	=47	=47	=47	=47	=47	=47	=47	=47	=47	=47	=47	=47	=47	=47	=47
!LO:TX:a:t=P:problem=znak repetycji na początku taktu	!	!	!	!	!	!	!	!	!	!	!	!	!LO:LB:g=original	!	!	!	!	!
!LO:TX:a:i:t=Tutti.	!	!	!	!	!	!	!	!LO:DY:t=for.	!LO:TX:a:t=P:problem=znak repetycji na początku taktu	!	!LO:TX:a:t=P:problem=znak repetycji na początku taktu	!	!LO:TX:a:t=P:problem=znak repetycji na początku taktu	!	!LO:TX:a:t=P:problem=znak repetycji na początku taktu	!	!	!
8D\L	6	.	16f#/LL	f	(<16f#/LL	f	(>16ff#\LL	f	8d\	ſae-	8A/	sae-	4a\	ſem-	4ff#\	Sem-	4dd\	2ff#\
.	.	.	16a/	.	16a/)	.	16gg\	.	.	.	.	.	.	.	.	.	.	.
8D\	.	.	16f#/	.	(<16f#/	.	16ff#\	.	8d\	-cu-	8A/	-cu-	.	.	.	.	.	.
.	.	.	16a/JJ	.	16a/JJ)	.	16ee\JJ)	.	.	.	.	.	.	.	.	.	.	.
*	*	*	*rep	*	*	*	*	*	*	*	*	*	*	*	*	*	*	*
8D\	.	.	16f#/LL	.	8f#/`L	.	8dd\`L	.	4d\	-la	4A/	-la	4a\	-per	4dd\	-per	4a/	.
.	.	.	16a/	.	.	.	.	.	.	.	.	.	.	.	.	.	.	.
8D\J	.	.	16f#/	.	8dd\`J	.	8ff#\`J	.	.	.	.	.	.	.	.	.	.	.
.	.	.	16a/JJ	.	.	.	.	.	.	.	.	.	.	.	.	.	.	.
*	*	*	*Xrep	*	*	*	*	*	*	*	*	*	*	*	*	*	*	*
8C#\L	6 5	.	(>16ee\LL	.	(>16ee\LL	.	(>16gg\LL	.	4c#\	ſae-	4e\	sae-	4a\	et	4gg\	et	4ee\	2gg\
.	.	.	16ff#\	.	16ff#\	.	16aa\	.	.	.	.	.	.	.	.	.	.	.
8C#\	.	.	16ee\	.	16ee\	.	16gg\	.	.	.	.	.	.	.	.	.	.	.
.	.	.	16dd\JJ)	.	16dd\JJ)	.	16ff#\JJ)	.	.	.	.	.	.	.	.	.	.	.
8C#\	.	.	8cc#\`L	.	8cc#\`L	.	8ee\`L	.	4c#\	-cu-	8c#\L	-cu-	4a\	in	8ee\L	in	4a/	.
8C#\J	.	.	8ee\`J	.	8ee\`J	.	8gg\`J	.	.	.	8e\J	.	.	.	8gg\J	.	.	.
=48	=48	=48	=48	=48	=48	=48	=48	=48	=48	=48	=48	=48	=48	=48	=48	=48	=48	=48
!	!	!	!LO:LB:g=original	!	!LO:LB:g=original	!	!	!	!	!	!	!	!	!	!	!	!LO:LB:g=original	!
8D\L	.	.	(>16ff#\LL	.	(>16ff#\LL	.	(>16aa\LL	.	4d\	-lo-	8d\	-lo-	8a\	ſae-	8ff#\	Sae-	4ff#\	4aa\
.	.	.	16gg\	.	16gg\	.	16bb\	.	.	.	.	.	.	.	.	.	.	.
8D\	.	.	16ff#\	.	16ff#\	.	16aa\	.	.	.	8d\	-rum	8a\	-cu-	8ff#\	-cu-	.	.
.	.	.	16ee\JJ)	.	16ee\JJ)	.	16gg\JJ)	.	.	.	.	.	.	.	.	.	.	.
!	!	!	!	!	!	!	!	!	!	!	!LO:LB:g=original	!	!	!	!	!	!	!
8D\	.	.	8dd\`L	.	8dd\`L	.	8ff#\`L	.	4d\	-rum	4f#\	a-	4b\	-la	4dd\	-la	4r	4r
8D\J	.	.	8ff#\`J	.	8ff#\`J	.	8aa\`J	.	.	.	.	.	.	.	.	.	.	.
!	!	!	!	!	!	!	!	!	!LO:LB:g=original	!	!	!	!	!	!LO:LB:g=original	!	!	!
*Xtremolo	*	*	*tremolo	*	*tremolo	*	*	*	*	*	*	*	*	*	*	*	*	*
8G\L	.	.	16gg\LL 16dd\	.	16gg\LL 16dd\	.	2bb\	.	4G\	a-	4d\	-men	4b\	sae-	4gg\	Sae-	2r	2r
.	.	.	16gg\ 16dd\	.	16gg\ 16dd\	.	.	.	.	.	.	.	.	.	.	.	.	.
8A\	.	.	16gg\ 16dd\	.	16gg\ 16dd\	.	.	.	.	.	.	.	.	.	.	.	.	.
.	.	.	16gg\ 16dd\	.	16gg\ 16dd\	.	.	.	.	.	.	.	.	.	.	.	.	.
8B\	.	.	16gg\ 16dd\	.	16gg\ 16dd\	.	.	.	4G\	-men	4d\	a-	4b\	-cu-	4gg\	-cu-	.	.
.	.	.	16gg\ 16dd\	.	16gg\ 16dd\	.	.	.	.	.	.	.	.	.	.	.	.	.
8c#\J	.	.	16gg\ 16dd\	.	16gg\ 16dd\	.	.	.	.	.	.	.	.	.	.	.	.	.
.	.	.	16gg\JJ 16dd\	.	16gg\JJ 16dd\	.	.	.	.	.	.	.	.	.	.	.	.	.
*	*	*	*Xtremolo	*	*Xtremolo	*	*	*	*	*	*	*	*	*	*	*	*	*
=49	=49	=49	=49	=49	=49	=49	=49	=49	=49	=49	=49	=49	=49	=49	=49	=49	=49	=49
!	!	!	!	!	!	!	!LO:LB:g=original	!	!	!	!	!	!	!	!	!	!	!
8d\L	.	.	4ff#\	.	4ff#\	.	8aa\L	.	4D\	a-	4f#\	-men	4a\	-lo-	4ff#\	-lo-	4ff#\	4aa\
8d\	.	.	.	.	.	.	8ddd\	.	.	.	.	.	.	.	.	.	.	.
8G\	.	.	8gg\L	.	8gg\L	.	8bb\	.	4G\	.	4d\	-a	8b\L	-rum	4gg\	-rum	8gg\L	8bb\L
8G\J	.	.	8ee\J	.	8ee\J	.	8gg\J	.	.	.	.	.	8b\J	.	.	.	8ee\J	8gg\J
!LO:LB:g=original	!	!	!	!	!	!	!	!	!	!	!	!	!	!	!	!	!	!
!LO:TX:a:t=P:problem=mixed beam	!	!	!	!	!	!	!	!	!	!	!	!	!	!	!	!	!	!
8A\L	.	.	4dd\	.	4dd\	.	4ff#\	.	4A\	.	4d\	.	4a\	a-	4ff#\	A-	4dd\	4ff#\
8A\	.	.	.	.	.	.	.	.	.	.	.	.	.	.	.	.	.	.
8AA/	.	.	4cc#\	.	4cc#\	.	4ee\	.	4A\	-men	4c#\	.	4a\	-men	4ee\	-men	4a/	4ee\
!LO:TX:a:t=P:problem=znak repetycji na końcu taktu	!	!	!	!	!	!	!	!	!LO:TX:a:t=P:problem=znak repetycji na końcu taktu	!	!LO:TX:a:t=P:problem=znak repetycji na końcu taktu	!	!LO:TX:a:t=P:problem=znak repetycji na końcu taktu	!	!LO:TX:a:t=P:problem=znak repetycji na końcu taktu	!	!	!
8AA/J	.	.	.	.	.	.	.	.	.	.	.	.	.	.	.	.	.	.
=50	=50	=50	=50	=50	=50	=50	=50	=50	=50	=50	=50	=50	=50	=50	=50	=50	=50	=50
*tremolo	*	*	*	*	*	*	*	*	*	*	*	*	*	*	*	*	*	*
!LO:TX:a:t=P:problem=takty 50-52 zapisane repetycją	!	!	!	!	!	!	!	!	!	!	!	!	!	!	!	!	!	!
!LO:TX:a:t=Tutti.	!	!	!	!	!	!	!	!	!LO:TX:a:t=P:problem=takty 50-53 zapisane repetycją	!	!LO:TX:a:t=P:problem=takty 50-53 zapisane repetycją	!	!LO:TX:a:t=P:problem=takty 50-53 zapisane repetycją	!	!LO:TX:a:t=P:problem=takty 50-53 zapisane repetycją	!	!	!
8D\L	6	.	16f#/LL	.	(<16f#/LL	.	16ff#\LL	f	8d\	ſae-	8A/	sae-	4a\	ſem-	4ff#\	Sem-	4dd\	4ff#\
.	.	.	16a/	.	16a/	.	16gg\	.	.	.	.	.	.	.	.	.	.	.
8D\	.	.	16f#/	.	16f#/	.	16ff#\	.	8d\	-cu-	8A/	-cu-	.	.	.	.	.	.
.	.	.	16a/JJ	.	16a/JJ)	.	16ee\JJ	.	.	.	.	.	.	.	.	.	.	.
!	!	!	!	!	!LO:TX:a:t=P:problem=mixed beam	!	!	!	!	!	!	!	!	!	!	!	!	!
*	*	*	*rep	*	*	*	*	*	*	*	*	*	*	*	*	*	*	*
8D\	.	.	16f#/LL	.	8f#/`L	.	8dd\L	.	4d\	-la	4A/	-la	4a\	-per	4dd\	-per	8r	8r
.	.	.	16a/	.	.	.	.	.	.	.	.	.	.	.	.	.	.	.
8D\J	.	.	16f#/	.	8dd\`J	.	8ff#\J	.	.	.	.	.	.	.	.	.	8dd\	8ff#\
.	.	.	16a/JJ	.	.	.	.	.	.	.	.	.	.	.	.	.	.	.
*	*	*	*Xrep	*	*	*	*	*	*	*	*	*	*	*	*	*	*	*
8C#\L	6 5	.	(>16ee\LL	.	(>16ee\LL	.	(>16gg\LL	.	4c#\	ſae-	4e\	sae-	4a\	et	4gg\	et	4ee\	4gg\
.	.	.	16ff#\	.	16ff#\	.	16aa\	.	.	.	.	.	.	.	.	.	.	.
8C#\	.	.	16ee\	.	16ee\	.	16gg\	.	.	.	.	.	.	.	.	.	.	.
.	.	.	16dd\JJ)	.	16dd\JJ)	.	16ff#\JJ)	.	.	.	.	.	.	.	.	.	.	.
8C#\	.	.	8cc#\`L	.	8cc#\`L	.	8ee\L	.	4c#\	-cu-	8c#\L	-cu-	4a\	in	8ee\L	in	8r	8r
8C#\J	.	.	8ee\`J	.	8ee\`J	.	8gg\J	.	.	.	8e\J	.	.	.	8gg\J	.	8ee\	8gg\
=51	=51	=51	=51	=51	=51	=51	=51	=51	=51	=51	=51	=51	=51	=51	=51	=51	=51	=51
8D\L	.	.	(>16ff#\LL	.	(>16ff#\LL	.	16aa\LL	.	4d\	-lo-	8d\	-lo-	8a\	ſae-	8ff#\	Sae-	4ff#\	4aa\
.	.	.	16gg\	.	16gg\	.	16bb\	.	.	.	.	.	.	.	.	.	.	.
8D\	.	.	16ff#\	.	16ff#\	.	16aa\	.	.	.	8d\	-rum	8a\	-cu-	8ff#\	-cu-	.	.
.	.	.	16ee\JJ)	.	16ee\JJ)	.	16gg\JJ	.	.	.	.	.	.	.	.	.	.	.
!	!	!	!	!	!	!	!	!	!	!	!LO:LB:g=original	!	!	!	!	!	!	!
8D\	.	.	8dd\`L	.	8dd\`L	.	8ff#\L	.	4d\	-rum	4f#\	a-	4b\	-la	4dd\	-la	4r	4r
8D\J	.	.	8ff#\`J	.	8ff#\`J	.	8aa\J	.	.	.	.	.	.	.	.	.	.	.
*Xtremolo	*	*	*	*	*	*	*	*	*	*	*	*	*	*	*	*	*	*
!	!	!	!	!	!LO:LB:g=original	!	!	!	!LO:LB:g=original	!	!	!	!	!	!LO:LB:g=original	!	!	!
8G\L	.	.	16gg\LL	.	16gg\LL	.	2bb\	.	4G\	a-	4d\	-men	4b\	sae-	4gg\	Sae-	2r	2r
.	.	.	16dd\	.	16dd\	.	.	.	.	.	.	.	.	.	.	.	.	.
8A\	.	.	16gg\	.	16ee\	.	.	.	.	.	.	.	.	.	.	.	.	.
.	.	.	16dd\JJ	.	16ff#\JJ	.	.	.	.	.	.	.	.	.	.	.	.	.
8B\	.	.	16gg\LL 16dd\	.	16gg\LL 16dd\	.	.	.	4G\	-men	4d\	a-	4b\	-cu-	4gg\	-cu-	.	.
.	.	.	16gg\ 16dd\	.	16gg\ 16dd\	.	.	.	.	.	.	.	.	.	.	.	.	.
8c#\J	.	.	16gg\ 16dd\	.	16gg\ 16dd\	.	.	.	.	.	.	.	.	.	.	.	.	.
.	.	.	16gg\JJ 16dd\	.	16gg\JJ 16dd\	.	.	.	.	.	.	.	.	.	.	.	.	.
=52	=52	=52	=52	=52	=52	=52	=52	=52	=52	=52	=52	=52	=52	=52	=52	=52	=52	=52
!	!	!	!LO:LB:g=original	!	!	!	!	!	!	!	!	!	!	!	!	!	!	!
8d\L	.	.	4ff#\ 4a\	.	4ff#\ 4a\	.	8aa\L	.	4D\	a-	4f#\	-men	4a\	-lo-	4ff#\	-lo-	4ff#\	4aa\
8d\	.	.	.	.	.	.	8ddd\	.	.	.	.	.	.	.	.	.	.	.
8G\	.	.	8gg\L	.	(>8gg\L	.	8bb\	.	4G\	.	4d\	-a	8b\L	-rum	4gg\	-rum	8gg\L	8bb\L
8G\J	.	.	8ee\J	.	8ee\J)	.	8gg\J	.	.	.	.	.	8b\J	.	.	.	8ee\J	8gg\J
!LO:LB:g=original	!	!	!	!	!	!	!	!	!	!	!	!	!	!	!	!	!	!
!LO:TX:a:t=P:problem=mixed beam	!	!	!	!	!	!	!	!	!	!	!	!	!	!	!	!	!	!
8A\L	.	.	4dd\	.	(>4dd\	.	4ff#\	.	4A\	.	4d\	.	4a\	a-	4ff#\	A-	4dd\	4ff#\
8A\	.	.	.	.	.	.	.	.	.	.	.	.	.	.	.	.	.	.
8AA/	.	.	4cc#\	.	4cc#\)	.	4ee\T	.	4A\	-men	4c#\	.	4a\	-men	4ee\	-men	4a/	4ee\
8AA/J	.	.	.	.	.	.	.	.	.	.	.	.	.	.	.	.	.	.
=53	=53	=53	=53	=53	=53	=53	=53	=53	=53	=53	=53	=53	=53	=53	=53	=53	=53	=53
8D\L	.	.	4a/ 4f#/	.	4a/ 4f#/	.	4dd\	.	8D\L	a-	2d\	-Amen	4a\	A-	4dd\	A-	4f#/	4dd\
8d\	.	.	.	.	.	.	.	.	8d\J	.	.	.	.	.	.	.	.	.
8A\	.	.	4ff#\ 4a\	.	4ff#\ 4a\	.	4ddd\ 4ff#\	.	8A\L	-men	.	.	4a\	-men	4ff#\	-men	4r	4r
8F#\J	.	.	.	.	.	.	.	.	8F#\J	.	.	.	.	.	.	.	.	.
8D\L	.	.	4ff#\ 4a\	.	4ff#\ 4a\	.	4ddd\ 4ff#\	.	8D\L	a-	2d\	A-	2a\	a-	2ff#\	A-	4dd\	4ff#\
8d\	.	.	.	.	.	.	.	.	8d\	.	.	.	.	.	.	.	.	.
8A\	.	.	4ff#\ 4a\	.	4ff#\ 4a\	.	4ddd\ 4ff#\	.	8A\	.	.	.	.	.	.	.	8a/L	4ff#\
8F#\J	.	.	.	.	.	.	.	.	8F#\J	.	.	.	.	.	.	.	8f#/J	.
=54	=54	=54	=54	=54	=54	=54	=54	=54	=54	=54	=54	=54	=54	=54	=54	=54	=54	=54
!	!	!	!	!	!	!	!LO:LB:g=original	!	!	!	!	!	!	!	!	!	!	!
2D/	.	.	2ff#\ 2a\	.	2ff#\ 2a\ 2d\	.	2ddd\ 2ff#\	.	2D\	-men	2d\	-men	2a\	-men.	2ff#\	-men.	2d/	1dd\
!	!	!	!	!	!	!	!LO:TX:b:t=Volti Laudate Pueri.\nVol: Laudate pue	!	!	!	!	!	!	!	!	!	!	!
2r	.	.	2r	.	2r	.	2r	.	2r	.	2r	.	2r	.	2r	.	2r	.
==	==	==	==	==	==	==	==	==	==	==	==	==	==	==	==	==	==	==
*-	*-	*-	*-	*-	*-	*-	*-	*-	*-	*-	*-	*-	*-	*-	*-	*-	*-	*-
!!!system-decoration: [g1][g2][g3]s10
!!!RDF**kern: > = above
!!!RDF**kern: < = below
!!!RDF**dynam: p = "pia"
!!!RDF**dynam: f = "for"
!!!ENC: Marta Lawrence
!!!END: 2020-06-22
!!!ENC: Krzysztof Stępień
!!!END: 2020-02-21
!!!YEC: Copyright 2022 Narodowy Instytut Fryderyka Chopina (https://polishscores.org)
!!!YEM: License CC-BY-4.0 (https://creativecommons.org/licenses/by/4.0)
